!!!!SEGMENT: pl-cz--iii-554--001-006_raszek-waclaw--missa-ex-c-cum-sancto-spiritu.krn
!!!cenid: 17xx:1027
!!!COM: Raszek, Wacław
!!!COM-rismID: pe30020314
!!!CDT: <1848->1848
!!!CNT:
!!!OPR: Missa ex C
!!!OTL: Cum sancto spiritu
!!!OMV: 006
!!!PDT: 1780
!!!AGN: Sacred; Mass
!!!SMS-siglum: PL-CZ
!!!SMS-shelfmark: III-554
!!!SMS-shelfwork: 001-006 M
!!!SMS-altvar:
!!!NIFC-rismSourceID: 300001043
!!!NIFC-rismChildID: 300001043
!!!NIFC-islandoraID: pl-cz:38848
!!!URL-pdf-islandora: https://repozytorium.nifc.pl/islandora/object/pl-cz%3A38848/datastream/PDF/view
!!!URL-scan:
!!!ONB-nifc: UWAGA: części Mszy: Kyrie, Gloria, Laudamus, Qui tollis, Quoniam, Cum sancto spiritu, Credo, Et incarnatus, Et resurrexit, Sanctus, Benedictus, Agnus Dei, Dona nobis
!!!AIN: 1 alto 1 bass 1 cbass 2 oboe 1 organ 1 soprn 1 tenor 2 tromp 1 viola 2 violn
!!!key: C
**kern	**kern	**dynam	**kern	**dynam	**kern	**dynam	**kern	**dynam	**kern	**text	**dynam	**kern	**text	**dynam	**kern	**text	**dynam	**kern	**text	**dynam	**kern	**dynam	**kern	**dynam	**kern	**dynam	**kern	**dynam
*	*group4	*	*group4	*	*group4	*	*group4	*	*group3	*	*	*group3	*	*	*group3	*	*	*group3	*	*	*group2	*	*group2	*	*group1	*	*group1	*
*part13	*part12	*part12	*part11	*part11	*part10	*part10	*part9	*part9	*part8	*part8	*part8	*part7	*part7	*part7	*part6	*part6	*part6	*part5	*part5	*part5	*part4	*part4	*part3	*part3	*part2	*part2	*part1	*part1
*staff13	*staff12	*	*staff11	*	*staff10	*	*staff9	*	*staff8	*staff8	*	*staff7	*staff7	*	*staff6	*staff6	*	*staff5	*staff5	*	*staff4	*	*staff3	*	*staff2	*	*staff1	*
*I"Organo Concertato	*I"Violone.	*	*I"Viola di Alto. oblig.	*	*I"Violino 2do.	*	*I"Violino I.mo	*	*I"Basso.	*	*	*I"Tenore.	*	*	*I"Alto.	*	*	*I"Canto.	*	*	*I"Clarino 2.do Ex C.	*	*I"Clarino I.mo Ex C.	*	*I"Oboe Secundo.	*	*I"Oboe Primo.	*
*I'org	*I'vlne	*	*I'vla	*	*I'vl 2	*	*I'vl 1	*	*I'B	*	*	*I'T	*	*	*I'A	*	*	*I'S	*	*	*I'clno 2 in C	*	*I'clno 1 in C	*	*I'ob 2	*	*I'ob 1	*
*Iorgan	*Icbass	*	*Iviola	*	*Ivioln	*	*Ivioln	*	*Ibass	*	*	*Itenor	*	*	*Ialto	*	*	*Isoprn	*	*	*Itromp	*	*Itromp	*	*Ioboe	*	*Ioboe	*
*ICklav	*ICstr	*	*ICstr	*	*ICstr	*	*ICstr	*	*ICvox	*	*	*ICvox	*	*	*ICvox	*	*	*ICvox	*	*	*ICbras	*	*ICbras	*	*ICww	*	*ICww	*
*IGcont	*	*	*	*	*	*	*	*	*IGcoro	*	*	*IGcoro	*	*	*IGcoro	*	*	*IGcoro	*	*	*	*	*	*	*	*	*	*
*clefF4	*clefF4	*	*clefC3	*	*clefG2	*	*clefG2	*	*clefF4	*	*	*clefC4	*	*	*clefC3	*	*	*clefC1	*	*	*clefG2	*	*clefG2	*	*clefG2	*	*clefG2	*
*k[]	*k[]	*	*k[]	*	*k[]	*	*k[]	*	*k[]	*	*	*k[]	*	*	*k[]	*	*	*k[]	*	*	*k[]	*	*k[]	*	*k[]	*	*k[]	*
*C:	*C:	*	*C:	*	*C:	*	*C:	*	*C:	*	*	*C:	*	*	*C:	*	*	*C:	*	*	*C:	*	*C:	*	*C:	*	*C:	*
*M4/4	*M4/4	*	*M4/4	*	*M4/4	*	*M4/4	*	*M4/4	*	*	*M4/4	*	*	*M4/4	*	*	*M4/4	*	*	*M4/4	*	*M4/4	*	*M4/4	*	*M4/4	*
*met(C.)	*met(C.)	*	*met(C.)	*	*met(C.)	*	*met(C.)	*	*met(C.)	*	*	*met(C.)	*	*	*met(C.)	*	*	*met(C.)	*	*	*met(C.)	*	*met(C.)	*	*met(C.)	*	*met(C.)	*
=1	=1	=1	=1	=1	=1	=1	=1	=1	=1	=1	=1	=1	=1	=1	=1	=1	=1	=1	=1	=1	=1	=1	=1	=1	=1	=1	=1	=1
*	*all\right	*	*all\right	*	*all\right	*	*all\right	*	*all\right	*	*	*all\right	*	*	*all\right	*	*	*all\right	*	*	*all\right	*	*all\right	*	*all\right	*	*all\right	*
*	*	*	*2\right	*	*	*	*	*	*2\right	*	*	*2\right	*	*	*2\right	*	*	*2\right	*	*	*2\right	*	*2\right	*	*2\right	*	*2\right	*
*	*	*	*tremolo	*	*	*	*	*	*	*	*	*	*	*	*	*	*	*	*	*	*tremolo	*	*tremolo	*	*tremolo	*	*tremolo	*
!	!LO:TX:t=P:problem=mixed beam	!	!	!	!	!	!	!	!	!	!	!	!	!	!	!	!	!	!	!	!	!	!	!	!	!	!	!
!	!LO:TX:a:i:t=T.	!	!	!	!	!	!	!	!LO:TX:a:i:t=T.	!	!	!LO:TX:a:i:t=T.	!	!	!LO:TX:a:i:t=T.	!	!	!	!	!	!	!	!	!	!	!	!	!
!	!LO:TX:a:rj:t=Ada&colon;	!	!LO:TX:a:rj:t=Ada&colon;	!LO:DY:a:t=for&colon;	!LO:TX:a:rj:t=Adag.	!	!LO:TX:a:rj:t=Ada&colon;	!LO:DY:a:t=f&colon;	!LO:TX:a:rj:t=Ada&colon;	!	!	!LO:TX:a:rj:t=Ada.	!	!	!LO:TX:a:rj:t=Ada&colon;	!	!	!LO:TX:a:rj:t=Ada.	!	!	!LO:TX:a:rj:t=Ada.	!	!LO:TX:a:rj:t=Ada&colon;	!	!LO:TX:a:rj:t=Ada&colon;	!	!LO:TX:a:rj:t=Ada&colon;	!
1ryy	8C/L	.	8g\L	f	8ee\L	.	8ccc\L	f	2c\	Cum	.	2c\	Cum	.	2g\	Cum	.	2ee\	Cum	.	8cc\L	.	8ee\L	.	8ee\L	.	8ccc\L	.
.	8c\	.	8g\	.	8ee\	.	8ccc\	.	.	.	.	.	.	.	.	.	.	.	.	.	8cc\	.	8ee\	.	8ee\	.	8ccc\	.
!	!	!	!	!	!	!LO:DY:a:t=for&colon;	!	!	!	!	!	!	!	!	!	!	!	!	!	!	!	!	!	!	!	!	!	!
.	8c\	.	8g\	.	8ee\	f	8ccc\	.	.	.	.	.	.	.	.	.	.	.	.	.	8cc\	.	8ee\	.	8ee\	.	8ccc\	.
.	8c\J	.	8g\J	.	8ee\J	.	8ccc\J	.	.	.	.	.	.	.	.	.	.	.	.	.	8cc\J	.	8ee\J	.	8ee\J	.	8ccc\J	.
*	*2\right	*	*	*	*	*	*	*	*	*	*	*	*	*	*	*	*	*	*	*	*	*	*	*	*	*	*	*
*	*tremolo	*	*	*	*	*	*	*	*	*	*	*	*	*	*	*	*	*	*	*	*	*	*	*	*	*	*	*
.	8c\L	.	8g\L	.	8ee\L	.	8ccc\L	.	2c\	San-	.	2c\	ſan-	.	2g\	San-	.	2ee\	San-	.	8cc\L	.	8ee\L	.	8ee\L	.	8ccc\L	.
.	8c\	.	8g\	.	8ee\	.	8ccc\	.	.	.	.	.	.	.	.	.	.	.	.	.	8cc\	.	8ee\	.	8ee\	.	8ccc\	.
.	8c\	.	8g\	.	8ee\	.	8ccc\	.	.	.	.	.	.	.	.	.	.	.	.	.	8cc\	.	8ee\	.	8ee\	.	8ccc\	.
.	8c\J	.	8g\J	.	8ee\J	.	8ccc\J	.	.	.	.	.	.	.	.	.	.	.	.	.	8cc\J	.	8ee\J	.	8ee\J	.	8ccc\J	.
=2	=2	=2	=2	=2	=2	=2	=2	=2	=2	=2	=2	=2	=2	=2	=2	=2	=2	=2	=2	=2	=2	=2	=2	=2	=2	=2	=2	=2
*	*	*	*	*	*2\right	*	*2\right	*	*	*	*	*	*	*	*	*	*	*	*	*	*	*	*	*	*	*	*	*
*	*	*	*	*	*tremolo	*	*tremolo	*	*	*	*	*	*	*	*	*	*	*	*	*	*	*	*	*	*	*	*	*
1ryy	8A\L	.	8a\L	.	8ee\L	.	8ccc\L	.	2A\	-cto	.	2c\	-cto	.	2a\	-cto	.	2ee\	-cto	.	8cc\L	.	8ee\L	.	8ee\L	.	8ccc\L	.
.	8A\	.	8a\	.	8ee\	.	8ccc\	.	.	.	.	.	.	.	.	.	.	.	.	.	8cc\	.	8ee\	.	8ee\	.	8ccc\	.
.	8A\	.	8a\	.	8ee\	.	8ccc\	.	.	.	.	.	.	.	.	.	.	.	.	.	8cc\	.	8ee\	.	8ee\	.	8ccc\	.
.	8A\J	.	8a\J	.	8ee\J	.	8ccc\J	.	.	.	.	.	.	.	.	.	.	.	.	.	8cc\J	.	8ee\J	.	8ee\J	.	8ccc\J	.
*	*	*	*	*	*	*	*	*	*	*ij	*	*	*ij	*	*	*ij	*	*	*	*	*	*	*	*	*	*	*	*
.	8A\L	.	8a\L	.	8ee\L	.	8ccc\L	.	4A\	San-	.	4c\	ſan-	.	4a\	San-	.	4ee\	San-	.	8cc\L	.	8ee\L	.	8ee\L	.	8ccc\L	.
.	8A\	.	8a\	.	8ee\	.	8ccc\	.	.	.	.	.	.	.	.	.	.	.	.	.	8cc\	.	8ee\	.	8ee\	.	8ccc\	.
.	8A\	.	8a\	.	8ee\	.	8ccc\	.	4A\	-cto	.	4c\	-cto	.	4a\	-cto	.	4ee\	-cto	.	8cc\	.	8ee\	.	8ee\	.	8ccc\	.
.	8A\J	.	8a\J	.	8ee\J	.	8ccc\J	.	.	.	.	.	.	.	.	.	.	.	.	.	8cc\J	.	8ee\J	.	8ee\J	.	8ccc\J	.
*	*	*	*	*	*	*	*Xtremolo	*	*	*Xij	*	*	*Xij	*	*	*Xij	*	*	*	*	*Xtremolo	*	*	*	*	*	*	*
=3	=3	=3	=3	=3	=3	=3	=3	=3	=3	=3	=3	=3	=3	=3	=3	=3	=3	=3	=3	=3	=3	=3	=3	=3	=3	=3	=3	=3
1ryy	8E\L	.	8g\L	.	8ee\L	.	8ccc\L	.	4.E\	Spi-	.	4.c\	Spi-	.	4.g\	Spi-	.	4.ee\	Spi-	.	2c/	.	8ee\L	.	8ee\L	.	8ccc\L	.
.	8E\	.	8g\	.	8ee\	.	8ccc\	.	.	.	.	.	.	.	.	.	.	.	.	.	.	.	8ee\	.	8ee\	.	8ccc\	.
.	8E\	.	8g\	.	8ee\	.	8ccc\	.	.	.	.	.	.	.	.	.	.	.	.	.	.	.	8ee\	.	8ee\	.	8ccc\	.
.	8E\J	.	8g\J	.	8ee\J	.	8ccc\J	.	8E\	-ri-	.	8c\	-ri-	.	8g\	-ri-	.	8ee\	-ri-	.	.	.	8ee\J	.	8ee\J	.	8ccc\J	.
*	*Xtremolo	*	*Xtremolo	*	*Xtremolo	*	*	*	*	*	*	*	*	*	*	*	*	*	*	*	*	*	*Xtremolo	*	*Xtremolo	*	*Xtremolo	*
.	4E\	.	4g\	.	4ee\	.	4ccc\	.	4E\	-tu	.	4c\	-tu	.	4g\	-tu	.	4ee\	-tu	.	4c/	.	4cc\	.	4cc\	.	4ccc\	.
.	4r	.	16c/LL	.	4r	.	4r	.	4r	.	.	4r	.	.	4r	.	.	4r	.	.	16cc\LL	.	16cc/LL	.	4r	.	4r	.
.	.	.	16G/	.	.	.	.	.	.	.	.	.	.	.	.	.	.	.	.	.	16g\	.	16g/	.	.	.	.	.
.	.	.	16E/	.	.	.	.	.	.	.	.	.	.	.	.	.	.	.	.	.	16e\	.	16e/	.	.	.	.	.
.	.	.	16C/JJ	.	.	.	.	.	.	.	.	.	.	.	.	.	.	.	.	.	16c\JJ	.	16c/JJ	.	.	.	.	.
!	!	!	!	!	!	!	!	!	!	!	!	!LO:LB:g=original	!	!	!	!	!	!	!	!	!	!	!	!	!	!	!	!
=4	=4	=4	=4	=4	=4	=4	=4	=4	=4	=4	=4	=4	=4	=4	=4	=4	=4	=4	=4	=4	=4	=4	=4	=4	=4	=4	=4	=4
!	!	!	!	!LO:DY:a:t=pia&colon;	!:global	!LO:DY:a:t=pia&colon;	!	!LO:DY:a:rj:t=p&colon;	!	!	!	!	!	!	!	!	!LO:DY:a:t=p&colon;	!	!	!LO:DY:a:t=p&colon;	!	!	!	!	!	!LO:DY:a:t=p&colon;	!	!LO:DY:a:t=pia&colon;
1ryy	8GG/	.	8G/	p	8B/	p	16r	p	2r	.	.	2r	.	.	2r	.	p	2r	.	p	8G/	.	8G/	.	2r	p	2r	p
.	.	.	.	.	.	.	16ff\LL	.	.	.	.	.	.	.	.	.	.	.	.	.	.	.	.	.	.	.	.	.
.	8r	.	8r	.	8r	.	16dd\	.	.	.	.	.	.	.	.	.	.	.	.	.	8r	.	8r	.	.	.	.	.
.	.	.	.	.	.	.	16b\JJ	.	.	.	.	.	.	.	.	.	.	.	.	.	.	.	.	.	.	.	.	.
!	!	!	!	!	!	!	!	!	!	!	!LO:DY:a:t=p&colon;	!	!	!	!	!	!	!	!	!	!	!	!	!LO:DY:a:t=p&colon;	!	!	!	!
.	4r	.	8G/	.	8B/	.	16g/LL	.	.	.	p	.	.	.	.	.	.	.	.	.	4r	.	4r	p	.	.	.	.
.	.	.	.	.	.	.	16dd/	.	.	.	.	.	.	.	.	.	.	.	.	.	.	.	.	.	.	.	.	.
.	.	.	8r	.	8r	.	16b/	.	.	.	.	.	.	.	.	.	.	.	.	.	.	.	.	.	.	.	.	.
!	!	!	!	!	!	!	!	!	!	!	!	!	!	!LO:DY:t=p&colon;	!	!	!	!	!	!	!	!	!	!	!	!	!	!
.	.	.	.	.	.	.	16f/JJ	.	.	.	.	.	.	p	.	.	.	.	.	.	.	.	.	.	.	.	.	.
!	!	!LO:DY:a:t=p&colon;	!	!	!	!	!LO:TX:t=P:problem=mixed beam	!	!	!	!	!	!	!	!	!	!	!	!	!	!	!LO:DY:a:t=p&colon;	!	!	!	!	!	!
.	4GG/	p	8G/	.	8c/	.	16e/LL	.	2G\	In	.	(4c\	In	.	(4e\	in	.	(4gg\	In	.	4g/	p	4g/	.	4e/	.	4gg\	.
.	.	.	.	.	.	.	16gg\	.	.	.	.	.	.	.	.	.	.	.	.	.	.	.	.	.	.	.	.	.
.	.	.	8r	.	8r	.	16ee\	.	.	.	.	.	.	.	.	.	.	.	.	.	.	.	.	.	.	.	.	.
.	.	.	.	.	.	.	16cc\JJ	.	.	.	.	.	.	.	.	.	.	.	.	.	.	.	.	.	.	.	.	.
.	4r	.	8G/	.	8d/	.	16b\LL	.	.	.	.	4d\)	.	.	4f\)	.	.	4b\)	.	.	4r	.	4r	.	4f/	.	4b\	.
.	.	.	.	.	.	.	16ff\	.	.	.	.	.	.	.	.	.	.	.	.	.	.	.	.	.	.	.	.	.
.	.	.	8r	.	8r	.	16dd\	.	.	.	.	.	.	.	.	.	.	.	.	.	.	.	.	.	.	.	.	.
*	*	*	*	*	*	*	*custos:cc	*	*	*	*	*	*	*	*	*	*	*	*	*	*	*	*	*	*	*	*	*
.	.	.	.	.	.	.	16b\JJ	.	.	.	.	.	.	.	.	.	.	.	.	.	.	.	.	.	.	.	.	.
!	!	!	!	!	!	!	!LO:LB:g=original	!	!	!	!	!	!	!	!	!	!	!	!	!	!	!	!	!	!	!	!	!
=5	=5	=5	=5	=5	=5	=5	=5	=5	=5	=5	=5	=5	=5	=5	=5	=5	=5	=5	=5	=5	=5	=5	=5	=5	=5	=5	=5	=5
1ryy	4GG/	.	8G/	.	16e/LL	.	4cc\	.	8.G\	glo-	.	8.c\	glo-	.	8.e\	glo-	.	8.cc\	glo-	.	4g/	.	4g/	.	4e/	.	4cc\	.
.	.	.	.	.	16g/	.	.	.	.	.	.	.	.	.	.	.	.	.	.	.	.	.	.	.	.	.	.	.
.	.	.	8r	.	16e/	.	.	.	.	.	.	.	.	.	.	.	.	.	.	.	.	.	.	.	.	.	.	.
.	.	.	.	.	16c/JJ	.	.	.	16G\	-ri-	.	16c\	-ri-	.	16e\	-ri-	.	16cc\	-ri-	.	.	.	.	.	.	.	.	.
.	4r	.	8G/	.	16B/LL	.	4dd\	.	4G\	-a	.	4B\	-a	.	4B/	-a	.	4dd\	-a	.	4r	.	4r	.	4b\	.	4dd\	.
.	.	.	.	.	16d/	.	.	.	.	.	.	.	.	.	.	.	.	.	.	.	.	.	.	.	.	.	.	.
.	.	.	8r	.	16G/	.	.	.	.	.	.	.	.	.	.	.	.	.	.	.	.	.	.	.	.	.	.	.
.	.	.	.	.	16B/JJ	.	.	.	.	.	.	.	.	.	.	.	.	.	.	.	.	.	.	.	.	.	.	.
.	4GG/	.	8G/	.	8c/	.	16ee\LL	.	4G\	De-	.	4G/	De-	.	(4c/	pa-	.	4ee\	De-	.	4g/	.	4g/	.	4cc\	.	4ee\	.
.	.	.	.	.	.	.	16gg\	.	.	.	.	.	.	.	.	.	.	.	.	.	.	.	.	.	.	.	.	.
.	.	.	8r	.	8r	.	16ee\	.	.	.	.	.	.	.	.	.	.	.	.	.	.	.	.	.	.	.	.	.
.	.	.	.	.	.	.	16cc\JJ	.	.	.	.	.	.	.	.	.	.	.	.	.	.	.	.	.	.	.	.	.
.	4r	.	8G/	.	8d/	.	16b\LL	.	4G\	-i	.	4G/	-i	.	4d/	.	.	4b\	-i	.	4r	.	4r	.	4g/	.	4b\	.
.	.	.	.	.	.	.	16ff\	.	.	.	.	.	.	.	.	.	.	.	.	.	.	.	.	.	.	.	.	.
.	.	.	8r	.	8r	.	16dd\	.	.	.	.	.	.	.	.	.	.	.	.	.	.	.	.	.	.	.	.	.
.	.	.	.	.	.	.	16b\JJ	.	.	.	.	.	.	.	.	.	.	.	.	.	.	.	.	.	.	.	.	.
=6	=6	=6	=6	=6	=6	=6	=6	=6	=6	=6	=6	=6	=6	=6	=6	=6	=6	=6	=6	=6	=6	=6	=6	=6	=6	=6	=6	=6
1ryy	4GG/	.	8G/	.	16e/LL	.	4cc\	.	4G\	Pa-	.	4G/	Pa-	.	4e/)	.	.	4cc\	pa-	.	4g/	.	4g/	.	4e/	.	4cc\	.
.	.	.	.	.	16g/	.	.	.	.	.	.	.	.	.	.	.	.	.	.	.	.	.	.	.	.	.	.	.
.	.	.	8r	.	16e/	.	.	.	.	.	.	.	.	.	.	.	.	.	.	.	.	.	.	.	.	.	.	.
.	.	.	.	.	16c/JJ	.	.	.	.	.	.	.	.	.	.	.	.	.	.	.	.	.	.	.	.	.	.	.
.	4r	.	8G/	.	16B/LL	.	4dd\	.	4G\	-triſ	.	4G/	-triſ	.	4B/	-tris	.	4dd\	-tris	.	4r	.	4r	.	4b\	.	4dd\	.
.	.	.	.	.	16d/	.	.	.	.	.	.	.	.	.	.	.	.	.	.	.	.	.	.	.	.	.	.	.
.	.	.	8r	.	16G/	.	.	.	.	.	.	.	.	.	.	.	.	.	.	.	.	.	.	.	.	.	.	.
*	*	*	*	*	*custos:c	*	*	*	*	*	*	*	*	*	*	*	*	*	*	*	*	*	*	*	*	*	*	*
.	.	.	.	.	16B/JJ	.	.	.	.	.	.	.	.	.	.	.	.	.	.	.	.	.	.	.	.	.	.	.
!	!	!	!LO:LB:g=original	!	!LO:LB:g=original	!	!	!	!	!	!	!	!	!	!	!	!	!	!	!	!	!	!	!	!	!	!	!
.	4GG/	.	8G/	.	4c/	.	4ee\	.	(4G\	A-	.	2c\	a-	.	(4c/	a-	.	(4ee\	a-	.	4g/	.	4g/	.	4cc\	.	4ee\	.
.	.	.	8r	.	.	.	.	.	.	.	.	.	.	.	.	.	.	.	.	.	.	.	.	.	.	.	.	.
.	4r	.	8d\	.	4c/	.	4ff#X\	.	4A\)	.	.	.	.	.	4d/)	.	.	4ff#X\)	.	.	4r	.	4r	.	4cc\	.	4ff#X\	.
.	.	.	8r	.	.	.	.	.	.	.	.	.	.	.	.	.	.	.	.	.	.	.	.	.	.	.	.	.
=7	=7	=7	=7	=7	=7	=7	=7	=7	=7	=7	=7	=7	=7	=7	=7	=7	=7	=7	=7	=7	=7	=7	=7	=7	=7	=7	=7	=7
1ryy	2GG;/	.	2d;\	.	2B;/	.	2gg;\	.	2G\	-men	.	2B\	-men	.	2d;\	-men	.	2gg\	-men	.	2g;/	.	2g/	.	2b;\	.	2gg\	.
.	2r	.	2r	.	2r	.	2r	.	2r	.	.	2r	.	.	2r	.	.	2r;	.	.	2r	.	2r;	.	2r	.	2r;	.
!	!LO:LB:g=original	!	!LO:LB:g=original	!	!LO:LB:g=original	!	!LO:LB:g=original	!	!LO:LB:g=original	!	!	!LO:LB:g=original	!	!	!LO:LB:g=original	!	!	!LO:LB:g=original	!	!	!LO:LB:g=original	!	!LO:LB:g=original	!	!LO:LB:g=original	!	!LO:LB:g=original	!
=8||	=8||	=8||	=8||	=8||	=8||	=8||	=8||	=8||	=8||	=8||	=8||	=8||	=8||	=8||	=8||	=8||	=8||	=8||	=8||	=8||	=8||	=8||	=8||	=8||	=8||	=8||	=8||	=8||
*	*M2/2	*	*M2/2	*	*M2/2	*	*M2/2	*	*M2/2	*	*	*M2/2	*	*	*M2/2	*	*	*M2/2	*	*	*M2/2	*	*M2/2	*	*M2/2	*	*M2/2	*
*	*met(c|)	*	*met(c|)	*	*met(c|)	*	*met(c|)	*	*met(c|)	*	*	*met(c|)	*	*	*met(c|)	*	*	*met(c|)	*	*	*met(c|)	*	*met(c|)	*	*met(c|)	*	*met(c|)	*
!	!	!	!LO:TX:a:t=14	!	!	!	!	!	!LO:TX:a:t=21	!	!	!LO:TX:a:t=14	!	!	!	!	!	!	!	!	!LO:TX:a:t=28	!	!LO:TX:a:t=28.	!	!LO:TX:a:t=28	!	!LO:TX:a:t=28	!
!	!LO:TX:a:rj:t=Allabr&colon;	!	!LO:TX:a:rj:t=Allabr.	!	!LO:TX:a:rj:t=Allabr.	!	!LO:TX:a:rj:t=Allo.	!	!LO:TX:a:rj:t=Allabr.	!	!	!LO:TX:a:rj:t=Allabr.	!	!	!LO:TX:a:rj:t=Allabr.	!	!	!LO:TX:a:rj:t=Allabr.	!	!	!LO:TX:a:rj:t=Allabr&colon;	!	!LO:TX:a:rj:t=Allabr.	!	!LO:TX:a:rj:t=Allabr.	!	!LO:TX:a:rj:t=Allabre.	!
!	!LO:TX:a:i:t=In gloria	!	!LO:TX:a:i:t=In gloria.	!	!LO:TX:a:i:t=In gloria	!	!LO:TX:a:i:t=In gloria	!	!	!	!	!LO:TX:a:i:t=I	!	!	!	!	!	!LO:TX:a:i:t=I	!	!	!LO:TX:a:i:t=In gloria	!	!LO:TX:a:i:t=In gloria.	!	!LO:TX:a:i:t=In gloria.	!	!LO:TX:a:i:t=In gloria	!
1ryy	00r	.	00r	.	00r	.	1cc	.	00r	.	.	00r	.	.	00r	.	.	(1cc	In	.	00r	.	00r	.	00r	.	00r	.
=9	=9	=9	=9	=9	=9	=9	=9	=9	=9	=9	=9	=9	=9	=9	=9	=9	=9	=9	=9	=9	=9	=9	=9	=9	=9	=9	=9	=9
1ryy	.	.	.	.	.	.	1dd	.	.	.	.	.	.	.	.	.	.	1dd)	.	.	.	.	.	.	.	.	.	.
=10	=10	=10	=10	=10	=10	=10	=10	=10	=10	=10	=10	=10	=10	=10	=10	=10	=10	=10	=10	=10	=10	=10	=10	=10	=10	=10	=10	=10
1ryy	.	.	.	.	.	.	2.ee\	.	.	.	.	.	.	.	.	.	.	2.ee\	glo-	.	.	.	.	.	.	.	.	.
.	.	.	.	.	.	.	4ee\	.	.	.	.	.	.	.	.	.	.	4ee\	-ri-	.	.	.	.	.	.	.	.	.
=11	=11	=11	=11	=11	=11	=11	=11	=11	=11	=11	=11	=11	=11	=11	=11	=11	=11	=11	=11	=11	=11	=11	=11	=11	=11	=11	=11	=11
1ryy	.	.	.	.	.	.	1b	.	.	.	.	.	.	.	.	.	.	1b	-a	.	.	.	.	.	.	.	.	.
=12	=12	=12	=12	=12	=12	=12	=12	=12	=12	=12	=12	=12	=12	=12	=12	=12	=12	=12	=12	=12	=12	=12	=12	=12	=12	=12	=12	=12
1ryy	00r	.	00r	.	0r	.	2.cc\	.	00r	.	.	00r	.	.	0r	.	.	2.cc\	De-	.	00r	.	00r	.	00r	.	00r	.
.	.	.	.	.	.	.	4cc\	.	.	.	.	.	.	.	.	.	.	4cc\	-i	.	.	.	.	.	.	.	.	.
=13	=13	=13	=13	=13	=13	=13	=13	=13	=13	=13	=13	=13	=13	=13	=13	=13	=13	=13	=13	=13	=13	=13	=13	=13	=13	=13	=13	=13
1ryy	.	.	.	.	.	.	2dd\	.	.	.	.	.	.	.	.	.	.	2dd\	pa-	.	.	.	.	.	.	.	.	.
.	.	.	.	.	.	.	2b\	.	.	.	.	.	.	.	.	.	.	2b\	-tris	.	.	.	.	.	.	.	.	.
=14	=14	=14	=14	=14	=14	=14	=14	=14	=14	=14	=14	=14	=14	=14	=14	=14	=14	=14	=14	=14	=14	=14	=14	=14	=14	=14	=14	=14
1ryy	.	.	.	.	1r	.	1a	.	.	.	.	.	.	.	1r	.	.	1a	a-	.	.	.	.	.	.	.	.	.
=15	=15	=15	=15	=15	=15	=15	=15	=15	=15	=15	=15	=15	=15	=15	=15	=15	=15	=15	=15	=15	=15	=15	=15	=15	=15	=15	=15	=15
1ryy	.	.	.	.	1g	.	4b/	.	.	.	.	.	.	.	(1g	In	.	4b\	-men	.	.	.	.	.	.	.	.	.
.	.	.	.	.	.	.	4g/	.	.	.	.	.	.	.	.	.	.	4g\	a-	.	.	.	.	.	.	.	.	.
.	.	.	.	.	.	.	4a/	.	.	.	.	.	.	.	.	.	.	4a\	.	.	.	.	.	.	.	.	.	.
.	.	.	.	.	.	.	4b/	.	.	.	.	.	.	.	.	.	.	4b\	.	.	.	.	.	.	.	.	.	.
=16	=16	=16	=16	=16	=16	=16	=16	=16	=16	=16	=16	=16	=16	=16	=16	=16	=16	=16	=16	=16	=16	=16	=16	=16	=16	=16	=16	=16
1ryy	00r	.	00r	.	1a	.	4cc/	.	00r	.	.	00r	.	.	1a)	.	.	4cc\	.	.	00r	.	00r	.	00r	.	00r	.
.	.	.	.	.	.	.	4a/	.	.	.	.	.	.	.	.	.	.	4a\	.	.	.	.	.	.	.	.	.	.
.	.	.	.	.	.	.	4b/	.	.	.	.	.	.	.	.	.	.	4b\	.	.	.	.	.	.	.	.	.	.
.	.	.	.	.	.	.	4cc/	.	.	.	.	.	.	.	.	.	.	4cc\	.	.	.	.	.	.	.	.	.	.
=17	=17	=17	=17	=17	=17	=17	=17	=17	=17	=17	=17	=17	=17	=17	=17	=17	=17	=17	=17	=17	=17	=17	=17	=17	=17	=17	=17	=17
1ryy	.	.	.	.	2.b/	.	4dd\	.	.	.	.	.	.	.	2.b\	glo-	.	4dd\	.	.	.	.	.	.	.	.	.	.
.	.	.	.	.	.	.	4cc\	.	.	.	.	.	.	.	.	.	.	4cc\	.	.	.	.	.	.	.	.	.	.
.	.	.	.	.	.	.	4dd\	.	.	.	.	.	.	.	.	.	.	4dd\	.	.	.	.	.	.	.	.	.	.
.	.	.	.	.	4b/	.	4ee\	.	.	.	.	.	.	.	4b\	-ri-	.	4ee\	.	.	.	.	.	.	.	.	.	.
=18	=18	=18	=18	=18	=18	=18	=18	=18	=18	=18	=18	=18	=18	=18	=18	=18	=18	=18	=18	=18	=18	=18	=18	=18	=18	=18	=18	=18
1ryy	.	.	.	.	1f#X	.	4dd\	.	.	.	.	.	.	.	1f#X	-a	.	4dd\	.	.	.	.	.	.	.	.	.	.
.	.	.	.	.	.	.	4cc\	.	.	.	.	.	.	.	.	.	.	4cc\	.	.	.	.	.	.	.	.	.	.
.	.	.	.	.	.	.	4b\	.	.	.	.	.	.	.	.	.	.	4b\	.	.	.	.	.	.	.	.	.	.
.	.	.	.	.	.	.	4a\	.	.	.	.	.	.	.	.	.	.	4a\	.	.	.	.	.	.	.	.	.	.
!	!	!	!	!	!	!	!LO:LB:g=original	!	!	!	!	!	!	!	!	!	!	!	!	!	!	!	!	!	!	!	!	!
=19	=19	=19	=19	=19	=19	=19	=19	=19	=19	=19	=19	=19	=19	=19	=19	=19	=19	=19	=19	=19	=19	=19	=19	=19	=19	=19	=19	=19
1ryy	.	.	.	.	2.g/	.	4b/	.	.	.	.	.	.	.	2.g\	De-	.	4b\	.	.	.	.	.	.	.	.	.	.
.	.	.	.	.	.	.	4g/	.	.	.	.	.	.	.	.	.	.	4g\	.	.	.	.	.	.	.	.	.	.
.	.	.	.	.	.	.	4a/	.	.	.	.	.	.	.	.	.	.	4a\	.	.	.	.	.	.	.	.	.	.
*	*	*	*	*	*	*	*	*	*	*	*	*	*	*	*	*	*	*custos:cc	*	*	*	*	*	*	*	*	*	*
.	.	.	.	.	4fn/	.	4b/	.	.	.	.	.	.	.	4fn\	-i	.	4b\	.	.	.	.	.	.	.	.	.	.
!	!	!	!	!	!	!	!	!	!	!	!	!	!	!	!	!	!	!LO:LB:g=original	!	!	!	!	!	!	!	!	!	!
=20	=20	=20	=20	=20	=20	=20	=20	=20	=20	=20	=20	=20	=20	=20	=20	=20	=20	=20	=20	=20	=20	=20	=20	=20	=20	=20	=20	=20
1ryy	00r	.	0r	.	2e/	.	4cc/	.	00r	.	.	0r	.	.	2e\	pa-	.	4cc\	.	.	00r	.	00r	.	00r	.	00r	.
.	.	.	.	.	.	.	4g/	.	.	.	.	.	.	.	.	.	.	4g\	.	.	.	.	.	.	.	.	.	.
.	.	.	.	.	4d/	.	[2cc/	.	.	.	.	.	.	.	(4d\	-tris	.	2cc\	-men	.	.	.	.	.	.	.	.	.
.	.	.	.	.	4c/	.	.	.	.	.	.	.	.	.	4c\)	.	.	.	.	.	.	.	.	.	.	.	.	.
=21	=21	=21	=21	=21	=21	=21	=21	=21	=21	=21	=21	=21	=21	=21	=21	=21	=21	=21	=21	=21	=21	=21	=21	=21	=21	=21	=21	=21
1ryy	.	.	.	.	1d	.	4cc\]	.	.	.	.	.	.	.	1d	a-	.	(2cc\	a-	.	.	.	.	.	.	.	.	.
.	.	.	.	.	.	.	8b\L	.	.	.	.	.	.	.	.	.	.	.	.	.	.	.	.	.	.	.	.	.
.	.	.	.	.	.	.	8a\J	.	.	.	.	.	.	.	.	.	.	.	.	.	.	.	.	.	.	.	.	.
.	.	.	.	.	.	.	2b\	.	.	.	.	.	.	.	.	.	.	2b\)	.	.	.	.	.	.	.	.	.	.
=22	=22	=22	=22	=22	=22	=22	=22	=22	=22	=22	=22	=22	=22	=22	=22	=22	=22	=22	=22	=22	=22	=22	=22	=22	=22	=22	=22	=22
!	!	!	!	!LO:DY:a:t=for&colon;	!	!	!	!	!	!	!	!	!	!	!	!	!	!	!	!	!	!	!	!	!	!	!	!
1ryy	.	.	1c	f	4e/	.	2cc\	.	.	.	.	1c	In	.	4e\	-men	.	2cc\	-men	.	.	.	.	.	.	.	.	.
.	.	.	.	.	4c/	.	.	.	.	.	.	.	.	.	4c\	a-	.	.	.	.	.	.	.	.	.	.	.	.
.	.	.	.	.	4d/	.	[2cc\	.	.	.	.	.	.	.	4d\	.	.	2cc\	a-	.	.	.	.	.	.	.	.	.
.	.	.	.	.	4e/	.	.	.	.	.	.	.	.	.	4e\	.	.	.	.	.	.	.	.	.	.	.	.	.
=23	=23	=23	=23	=23	=23	=23	=23	=23	=23	=23	=23	=23	=23	=23	=23	=23	=23	=23	=23	=23	=23	=23	=23	=23	=23	=23	=23	=23
1ryy	.	.	1d	.	4f/	.	2cc\]	.	.	.	.	1d	.	.	4f\	.	.	2cc\	.	.	.	.	.	.	.	.	.	.
.	.	.	.	.	4d/	.	.	.	.	.	.	.	.	.	4d\	.	.	.	.	.	.	.	.	.	.	.	.	.
.	.	.	.	.	4e/	.	2b\	.	.	.	.	.	.	.	4e\	.	.	2b\	.	.	.	.	.	.	.	.	.	.
.	.	.	.	.	4f/	.	.	.	.	.	.	.	.	.	4f\	.	.	.	.	.	.	.	.	.	.	.	.	.
!	!	!	!	!	!	!	!	!	!	!	!	!	!	!	!LO:LB:g=original	!	!	!	!	!	!	!	!	!	!	!	!	!
=24	=24	=24	=24	=24	=24	=24	=24	=24	=24	=24	=24	=24	=24	=24	=24	=24	=24	=24	=24	=24	=24	=24	=24	=24	=24	=24	=24	=24
1ryy	00r	.	2.e\	.	4g/	.	4cc\	.	00r	.	.	2.e\	glo-	.	4g\	.	.	2cc\	.	.	00r	.	00r	.	00r	.	00r	.
.	.	.	.	.	4f/	.	4cc\	.	.	.	.	.	.	.	4f\	.	.	.	.	.	.	.	.	.	.	.	.	.
.	.	.	.	.	4g/	.	4b\	.	.	.	.	.	.	.	4g\	.	.	4b\	.	.	.	.	.	.	.	.	.	.
.	.	.	4e\	.	4a/	.	4cc\	.	.	.	.	4e\	-ri-	.	4a\	.	.	4cc\	.	.	.	.	.	.	.	.	.	.
=25	=25	=25	=25	=25	=25	=25	=25	=25	=25	=25	=25	=25	=25	=25	=25	=25	=25	=25	=25	=25	=25	=25	=25	=25	=25	=25	=25	=25
1ryy	.	.	1B	.	4g/	.	1dd	.	.	.	.	1B	-a	.	4g\	.	.	1dd	.	.	.	.	.	.	.	.	.	.
.	.	.	.	.	4f/	.	.	.	.	.	.	.	.	.	4f\	.	.	.	.	.	.	.	.	.	.	.	.	.
.	.	.	.	.	4e/	.	.	.	.	.	.	.	.	.	4e\	.	.	.	.	.	.	.	.	.	.	.	.	.
.	.	.	.	.	4d/	.	.	.	.	.	.	.	.	.	4d\	.	.	.	.	.	.	.	.	.	.	.	.	.
!	!	!	!	!	!LO:LB:g=original	!	!	!	!	!	!	!	!	!	!	!	!	!	!	!	!	!	!	!	!	!	!	!
=26	=26	=26	=26	=26	=26	=26	=26	=26	=26	=26	=26	=26	=26	=26	=26	=26	=26	=26	=26	=26	=26	=26	=26	=26	=26	=26	=26	=26
1ryy	.	.	2.c/	.	2e/	.	2g/	.	.	.	.	2.c\	De-	.	2e\	.	.	2g/	-men	.	.	.	.	.	.	.	.	.
.	.	.	.	.	4a/	.	2ee\	.	.	.	.	.	.	.	4a\	.	.	2ee\	a-	.	.	.	.	.	.	.	.	.
.	.	.	4c/	.	4g/	.	.	.	.	.	.	4c\	-i	.	4g\	.	.	.	.	.	.	.	.	.	.	.	.	.
=27	=27	=27	=27	=27	=27	=27	=27	=27	=27	=27	=27	=27	=27	=27	=27	=27	=27	=27	=27	=27	=27	=27	=27	=27	=27	=27	=27	=27
1ryy	.	.	4d/	.	2f#X/	.	1dd	.	.	.	.	2d\	Pa-	.	2f#X\	.	.	1dd	.	.	.	.	.	.	.	.	.	.
.	.	.	4c/	.	.	.	.	.	.	.	.	.	.	.	.	.	.	.	.	.	.	.	.	.	.	.	.	.
.	.	.	2B/	.	[2g/	.	.	.	.	.	.	2B\	-triſ	.	2g\	-men	.	.	.	.	.	.	.	.	.	.	.	.
=28	=28	=28	=28	=28	=28	=28	=28	=28	=28	=28	=28	=28	=28	=28	=28	=28	=28	=28	=28	=28	=28	=28	=28	=28	=28	=28	=28	=28
1ryy	1r	.	1A	.	2g/]	.	1cc	.	1r	.	.	1A	A-	.	(2g\	a-	.	1cc	.	.	00r	.	00r	.	00r	.	00r	.
!	!	!	!	!	!LO:SIC:v:s=2fn/	!	!	!	!	!	!	!	!	!	!	!	!	!	!	!	!	!	!	!	!	!	!	!
.	.	.	.	.	2f#/	.	.	.	.	.	.	.	.	.	2f\)	.	.	.	.	.	.	.	.	.	.	.	.	.
=29	=29	=29	=29	=29	=29	=29	=29	=29	=29	=29	=29	=29	=29	=29	=29	=29	=29	=29	=29	=29	=29	=29	=29	=29	=29	=29	=29	=29
1ryy	1G	.	4B/	.	2g/	.	2b\	.	1G	In	.	4B\	-men	.	2g\	-men	.	2b\	-men	.	.	.	.	.	.	.	.	.
.	.	.	4G/	.	.	.	.	.	.	.	.	4G/	A-	.	.	.	.	.	.	.	.	.	.	.	.	.	.	.
.	.	.	4A/	.	2g/	.	2r	.	.	.	.	4A/	.	.	(2g\	a-	.	2r	.	.	.	.	.	.	.	.	.	.
.	.	.	4B/	.	.	.	.	.	.	.	.	4B\	.	.	.	.	.	.	.	.	.	.	.	.	.	.	.	.
=30	=30	=30	=30	=30	=30	=30	=30	=30	=30	=30	=30	=30	=30	=30	=30	=30	=30	=30	=30	=30	=30	=30	=30	=30	=30	=30	=30	=30
1ryy	1A	.	4c/	.	2g/	.	00r	.	1A	.	.	4c\	.	.	2g\)	.	.	00r	.	.	.	.	.	.	.	.	.	.
.	.	.	4A/	.	.	.	.	.	.	.	.	4A\	.	.	.	.	.	.	.	.	.	.	.	.	.	.	.	.
.	.	.	4B/	.	2f#X/	.	.	.	.	.	.	4B\	.	.	2f#X\	.	.	.	.	.	.	.	.	.	.	.	.	.
*	*	*	*	*	*	*	*	*	*	*	*	*custos:d	*	*	*	*	*	*	*	*	*	*	*	*	*	*	*	*
.	.	.	4c/	.	.	.	.	.	.	.	.	4c\	.	.	.	.	.	.	.	.	.	.	.	.	.	.	.	.
!	!	!	!	!	!	!	!	!	!	!	!	!LO:LB:g=original	!	!	!	!	!	!	!	!	!	!	!	!	!	!	!	!
=31	=31	=31	=31	=31	=31	=31	=31	=31	=31	=31	=31	=31	=31	=31	=31	=31	=31	=31	=31	=31	=31	=31	=31	=31	=31	=31	=31	=31
1ryy	2.B\	.	4d\	.	1g	.	.	.	2.B\	glo-	.	4d\	.	.	1g	-men	.	.	.	.	.	.	.	.	.	.	.	.
.	.	.	4c\	.	.	.	.	.	.	.	.	4c\	.	.	.	.	.	.	.	.	.	.	.	.	.	.	.	.
.	.	.	4d\	.	.	.	.	.	.	.	.	4d\	.	.	.	.	.	.	.	.	.	.	.	.	.	.	.	.
.	4B\	.	4e\	.	.	.	.	.	4B\	-ri-	.	4e\	.	.	.	.	.	.	.	.	.	.	.	.	.	.	.	.
=32	=32	=32	=32	=32	=32	=32	=32	=32	=32	=32	=32	=32	=32	=32	=32	=32	=32	=32	=32	=32	=32	=32	=32	=32	=32	=32	=32	=32
1ryy	1F#X	.	4d\	.	1a	.	.	.	1F#X	-a	.	4d\	.	.	1a	a-	.	.	.	.	00r	.	00r	.	00r	.	00r	.
.	.	.	4c\	.	.	.	.	.	.	.	.	4c\	.	.	.	.	.	.	.	.	.	.	.	.	.	.	.	.
.	.	.	4B\	.	.	.	.	.	.	.	.	4B\	.	.	.	.	.	.	.	.	.	.	.	.	.	.	.	.
.	.	.	4A/	.	.	.	.	.	.	.	.	4A\	.	.	.	.	.	.	.	.	.	.	.	.	.	.	.	.
=33	=33	=33	=33	=33	=33	=33	=33	=33	=33	=33	=33	=33	=33	=33	=33	=33	=33	=33	=33	=33	=33	=33	=33	=33	=33	=33	=33	=33
1ryy	2.G\	.	4B/	.	4d/	.	.	.	2.G\	De-	.	4B\	.	.	4d\	.	.	.	.	.	.	.	.	.	.	.	.	.
.	.	.	4G/	.	4B/	.	.	.	.	.	.	4G/	.	.	4B/	.	.	.	.	.	.	.	.	.	.	.	.	.
!	!	!	!LO:LB:g=original	!	!	!	!	!	!	!	!	!	!	!	!	!	!	!	!	!	!	!	!	!	!	!	!	!
.	.	.	4A/	.	4c/	.	.	.	.	.	.	4A/	.	.	4c/	.	.	.	.	.	.	.	.	.	.	.	.	.
.	4Fn\	.	4B/	.	4d/	.	.	.	4Fn\	-i	.	4B/	.	.	4d/	.	.	.	.	.	.	.	.	.	.	.	.	.
=34	=34	=34	=34	=34	=34	=34	=34	=34	=34	=34	=34	=34	=34	=34	=34	=34	=34	=34	=34	=34	=34	=34	=34	=34	=34	=34	=34	=34
1ryy	2E\	.	4c/	.	1g	.	0r	.	2E\	Pa-	.	4c\	.	.	1g	.	.	0r	.	.	.	.	.	.	.	.	.	.
.	.	.	4G/	.	.	.	.	.	.	.	.	4G/	.	.	.	.	.	.	.	.	.	.	.	.	.	.	.	.
.	4D/	.	[2c/	.	.	.	.	.	4D\	-triſ	.	[2c\	.	.	.	.	.	.	.	.	.	.	.	.	.	.	.	.
.	4C/	.	.	.	.	.	.	.	4C/	.	.	.	.	.	.	.	.	.	.	.	.	.	.	.	.	.	.	.
!	!	!	!	!	!	!	!	!	!	!	!	!	!	!	!LO:LB:g=original	!	!	!	!	!	!	!	!	!	!	!	!	!
=35	=35	=35	=35	=35	=35	=35	=35	=35	=35	=35	=35	=35	=35	=35	=35	=35	=35	=35	=35	=35	=35	=35	=35	=35	=35	=35	=35	=35
1ryy	1D	.	2c/]	.	1f	.	.	.	1D	A-	.	2c\]	.	.	1fn	.	.	.	.	.	.	.	.	.	.	.	.	.
.	.	.	2B/	.	.	.	.	.	.	.	.	2B\	.	.	.	.	.	.	.	.	.	.	.	.	.	.	.	.
=36	=36	=36	=36	=36	=36	=36	=36	=36	=36	=36	=36	=36	=36	=36	=36	=36	=36	=36	=36	=36	=36	=36	=36	=36	=36	=36	=36	=36
!	!	!	!	!	!	!	!LO:TX:a:i:rj:t=T.	!LO:DY:a:t=f&colon;	!	!	!	!	!	!	!	!	!	!	!	!	!	!	!	!	!	!	!	!
1ryy	4C/	.	2c/	.	4e/	.	1cc	f	2C/	-men	.	2c\	-men	.	2e\	-men	.	(1cc	In	.	1e	.	1cc	.	2cc\	.	1cc	.
.	4E/	.	.	.	4g/	.	.	.	.	.	.	.	.	.	.	.	.	.	.	.	.	.	.	.	.	.	.	.
.	4D/	.	2r	.	4f/	.	.	.	2r	.	.	2r	.	.	2r	.	.	.	.	.	.	.	.	.	2e\	.	.	.
.	4C/	.	.	.	4e/	.	.	.	.	.	.	.	.	.	.	.	.	.	.	.	.	.	.	.	.	.	.	.
!	!LO:LB:g=original	!	!	!	!	!	!	!	!	!	!	!	!	!	!	!	!	!	!	!	!	!	!	!	!	!	!	!
=37	=37	=37	=37	=37	=37	=37	=37	=37	=37	=37	=37	=37	=37	=37	=37	=37	=37	=37	=37	=37	=37	=37	=37	=37	=37	=37	=37	=37
1ryy	4BB/	.	1B	.	4d/	.	1dd	.	4BB/	In	.	1B	In	.	1g	In	.	1dd)	.	.	1g	.	1dd	.	1g	.	1dd	.
.	4GG/	.	.	.	4B/	.	.	.	4GG/	.	.	.	.	.	.	.	.	.	.	.	.	.	.	.	.	.	.	.
.	4AA/	.	.	.	4c/	.	.	.	4AA/	.	.	.	.	.	.	.	.	.	.	.	.	.	.	.	.	.	.	.
.	4BB/	.	.	.	4d/	.	.	.	4BB/	.	.	.	.	.	.	.	.	.	.	.	.	.	.	.	.	.	.	.
!	!	!	!	!	!	!	!LO:LB:g=original	!	!	!	!	!	!	!	!	!	!	!	!	!	!	!	!	!	!	!	!	!
=38	=38	=38	=38	=38	=38	=38	=38	=38	=38	=38	=38	=38	=38	=38	=38	=38	=38	=38	=38	=38	=38	=38	=38	=38	=38	=38	=38	=38
1ryy	4C/	.	1c	.	4e/	.	2.ee\	.	4C/	glo-	.	2.c\	glo-	.	2.g\	glo-	.	2.ee\	glo-	.	2cc\	.	2ee\	.	1g	.	2.ee\	.
.	4D/	.	.	.	4f/	.	.	.	4D\	.	.	.	.	.	.	.	.	.	.	.	.	.	.	.	.	.	.	.
.	4E\	.	.	.	4g/	.	.	.	4E\	-ri-	.	.	.	.	.	.	.	.	.	.	2r	.	2r	.	.	.	.	.
.	4F\	.	.	.	4a/	.	4ee\	.	4F\	-a	.	4c\	-ri-	.	4g\	-ri-	.	4ee\	-ri[[a]]-	.	.	.	.	.	.	.	4ee\	.
!	!	!	!	!	!	!	!	!	!LO:PB:g=original	!	!	!	!	!	!	!	!	!LO:LB:g=original	!	!	!	!	!	!	!	!	!	!
=39	=39	=39	=39	=39	=39	=39	=39	=39	=39	=39	=39	=39	=39	=39	=39	=39	=39	=39	=39	=39	=39	=39	=39	=39	=39	=39	=39	=39
1ryy	4G\	.	1d	.	4g/	.	1b	.	4G\	De-	.	1d	-a	.	1g	-a	.	1b	-a	.	4g/	.	4g/	.	4g/	.	1b	.
.	4F\	.	.	.	4a/	.	.	.	4F\	.	.	.	.	.	.	.	.	.	.	.	8g/L	.	8g/L	.	4a/	.	.	.
.	.	.	.	.	.	.	.	.	.	.	.	.	.	.	.	.	.	.	.	.	8g/J	.	8g/J	.	.	.	.	.
.	4E\	.	.	.	4g/	.	.	.	4E\	-i	.	.	.	.	.	.	.	.	.	.	4g/	.	4g/	.	4g/	.	.	.
.	4D\	.	.	.	4f/	.	.	.	4D\	.	.	.	.	.	.	.	.	.	.	.	4g/	.	4g/	.	4f/	.	.	.
=40	=40	=40	=40	=40	=40	=40	=40	=40	=40	=40	=40	=40	=40	=40	=40	=40	=40	=40	=40	=40	=40	=40	=40	=40	=40	=40	=40	=40
1ryy	4C/	.	2e\	.	1e	.	2.cc\	.	(4C/	Pa-	.	2e\	De-	.	2g\	De-	.	2.cc\	De-	.	4e\	.	4cc\	.	1e	.	2.cc\	.
.	4E/	.	.	.	.	.	.	.	4E\)	.	.	.	.	.	.	.	.	.	.	.	4r	.	4r	.	.	.	.	.
.	4A\	.	2a\	.	.	.	.	.	(4A\	-triſ	.	2c\	-i	.	2e\	-i	.	.	.	.	2r	.	2r	.	.	.	.	.
.	4G\	.	.	.	.	.	4cc\	.	4G\)	.	.	.	.	.	.	.	.	4cc\	-i	.	.	.	.	.	.	.	4cc\	.
=41	=41	=41	=41	=41	=41	=41	=41	=41	=41	=41	=41	=41	=41	=41	=41	=41	=41	=41	=41	=41	=41	=41	=41	=41	=41	=41	=41	=41
1ryy	4F#X\	.	2d\	.	2a/	.	2dd\	.	4F#X\	A-	.	2d\	Pa-	.	2a\	pa-	.	2dd\	pa-	.	00r	.	00r	.	2a/	.	2dd\	.
.	4D\	.	.	.	.	.	.	.	4D\	.	.	.	.	.	.	.	.	.	.	.	.	.	.	.	.	.	.	.
.	2G\	.	2d\	.	2g/	.	2b\	.	[2G\	.	.	2d\	-triſ	.	2g\	.	.	2b\	-tris	.	.	.	.	.	2g/	.	2b\	.
!	!	!	!	!	!LO:LB:g=original	!	!	!	!	!	!	!LO:PB:g=original	!	!	!	!	!	!	!	!	!	!	!	!	!	!	!	!
=42	=42	=42	=42	=42	=42	=42	=42	=42	=42	=42	=42	=42	=42	=42	=42	=42	=42	=42	=42	=42	=42	=42	=42	=42	=42	=42	=42	=42
1ryy	2G\	.	2d\	.	2d/	.	2a\	.	2G\]	.	.	1d	A-	.	2d\	.	.	2a\	a-	.	.	.	.	.	2d/	.	2a/	.
.	2Fn\	.	2d\	.	2a/	.	[2dd\	.	2Fn\	.	.	.	.	.	2a\	.	.	2dd\	.	.	.	.	.	.	2a/	.	2dd\	.
=43	=43	=43	=43	=43	=43	=43	=43	=43	=43	=43	=43	=43	=43	=43	=43	=43	=43	=43	=43	=43	=43	=43	=43	=43	=43	=43	=43	=43
1ryy	2E\	.	1e	.	2g#X/	.	2dd\]	.	2E\	.	.	1e	.	.	2g#X\	.	.	2dd\	.	.	.	.	.	.	2g#X/	.	2dd\	.
.	2A\	.	.	.	[2a/	.	[2cc\	.	2A\	.	.	.	.	.	2a\	.	.	2cc\	.	.	.	.	.	.	2a/	.	2cc\	.
=44	=44	=44	=44	=44	=44	=44	=44	=44	=44	=44	=44	=44	=44	=44	=44	=44	=44	=44	=44	=44	=44	=44	=44	=44	=44	=44	=44	=44
1ryy	2F#X\	.	1d	.	2a/]	.	2cc\]	.	2F#X\	.	.	1d	.	.	2a\	.	.	2cc\	.	.	.	.	.	.	2a/	.	2cc\	.
.	2G\	.	.	.	[2gn/	.	2b\	.	2G\	.	.	.	.	.	2g\	-tris	.	2b\	.	.	.	.	.	.	2g/	.	2b\	.
=45	=45	=45	=45	=45	=45	=45	=45	=45	=45	=45	=45	=45	=45	=45	=45	=45	=45	=45	=45	=45	=45	=45	=45	=45	=45	=45	=45	=45
1ryy	2C/	.	2e\	.	2g/]	.	1a	.	2C/	.	.	2e\	.	.	(2g\	a-	.	1a	.	.	2r	.	2r	.	1a	.	2gg\	.
.	2D/	.	2d\	.	2f#X/	.	.	.	2D/	.	.	2d\	.	.	2f#X\)	.	.	.	.	.	2dd\	.	2dd\	.	.	.	2ff#X\	.
!	!	!	!	!	!	!	!	!	!	!	!	!	!	!	!	!	!	!	!	!	!	!	!	!	!LO:LB:g=original	!	!	!
=46	=46	=46	=46	=46	=46	=46	=46	=46	=46	=46	=46	=46	=46	=46	=46	=46	=46	=46	=46	=46	=46	=46	=46	=46	=46	=46	=46	=46
!	!	!	!	!	!	!LO:DY:a:t=p&colon;	!	!	!	!	!	!	!	!	!	!	!	!	!	!	!	!	!	!	!	!	!	!
1ryy	2GG/	.	2d\	.	4g/	p	2b\	.	2GG/	-men	.	2d\	-men	.	2g\	-men	.	2g\	-men	.	2g/	.	2dd\	.	2b\	.	2gg\	.
!	!	!	!	!	!	!	!	!LO:DY:a:t=pia&colon;	!	!	!	!	!	!	!	!	!	!	!	!	!	!	!	!	!	!	!	!
.	.	.	.	.	4b/	.	.	p	.	.	.	.	.	.	.	.	.	.	.	.	.	.	.	.	.	.	.	.
.	2r	.	2r	.	4a/	.	2gg\	.	2r	.	.	2r	.	.	2r	.	.	2r	.	.	2r	.	2r	.	2r	.	2r	.
.	.	.	.	.	4g/	.	.	.	.	.	.	.	.	.	.	.	.	.	.	.	.	.	.	.	.	.	.	.
!	!	!	!	!	!	!	!	!	!	!	!	!	!	!	!LO:LB:g=original	!	!	!	!	!	!LO:LB:g=original	!	!	!	!	!	!LO:LB:g=original	!
=47	=47	=47	=47	=47	=47	=47	=47	=47	=47	=47	=47	=47	=47	=47	=47	=47	=47	=47	=47	=47	=47	=47	=47	=47	=47	=47	=47	=47
!	!LO:TX:a:t=18	!	!LO:TX:a:t=12	!	!	!	!	!	!	!	!	!	!	!	!	!	!	!	!	!	!LO:TX:a:t=19	!	!LO:TX:a:t=19	!	!LO:TX:a:t=16.	!	!	!
1ryy	00r	.	00r	.	4f#X/	.	1aa	.	00r	.	.	00r	.	.	00r	.	.	00r	.	.	00r	.	00r	.	00r	.	00r	.
.	.	.	.	.	4d/	.	.	.	.	.	.	.	.	.	.	.	.	.	.	.	.	.	.	.	.	.	.	.
.	.	.	.	.	4e/	.	.	.	.	.	.	.	.	.	.	.	.	.	.	.	.	.	.	.	.	.	.	.
.	.	.	.	.	4f#/	.	.	.	.	.	.	.	.	.	.	.	.	.	.	.	.	.	.	.	.	.	.	.
=48	=48	=48	=48	=48	=48	=48	=48	=48	=48	=48	=48	=48	=48	=48	=48	=48	=48	=48	=48	=48	=48	=48	=48	=48	=48	=48	=48	=48
1ryy	.	.	.	.	4g/	.	2.bb\	.	.	.	.	.	.	.	.	.	.	.	.	.	.	.	.	.	.	.	.	.
.	.	.	.	.	4a/	.	.	.	.	.	.	.	.	.	.	.	.	.	.	.	.	.	.	.	.	.	.	.
.	.	.	.	.	4b/	.	.	.	.	.	.	.	.	.	.	.	.	.	.	.	.	.	.	.	.	.	.	.
.	.	.	.	.	4cc/	.	4bb\	.	.	.	.	.	.	.	.	.	.	.	.	.	.	.	.	.	.	.	.	.
=49	=49	=49	=49	=49	=49	=49	=49	=49	=49	=49	=49	=49	=49	=49	=49	=49	=49	=49	=49	=49	=49	=49	=49	=49	=49	=49	=49	=49
1ryy	.	.	.	.	4dd\	.	1ff#X	.	.	.	.	.	.	.	.	.	.	.	.	.	.	.	.	.	.	.	.	.
.	.	.	.	.	4ee\	.	.	.	.	.	.	.	.	.	.	.	.	.	.	.	.	.	.	.	.	.	.	.
.	.	.	.	.	4dd\	.	.	.	.	.	.	.	.	.	.	.	.	.	.	.	.	.	.	.	.	.	.	.
.	.	.	.	.	4cc\	.	.	.	.	.	.	.	.	.	.	.	.	.	.	.	.	.	.	.	.	.	.	.
=50	=50	=50	=50	=50	=50	=50	=50	=50	=50	=50	=50	=50	=50	=50	=50	=50	=50	=50	=50	=50	=50	=50	=50	=50	=50	=50	=50	=50
1ryy	.	.	.	.	4b/	.	2gg\	.	.	.	.	.	.	.	.	.	.	.	.	.	.	.	.	.	.	.	.	.
.	.	.	.	.	4a/	.	.	.	.	.	.	.	.	.	.	.	.	.	.	.	.	.	.	.	.	.	.	.
.	.	.	.	.	4g/	.	4bb\	.	.	.	.	.	.	.	.	.	.	.	.	.	.	.	.	.	.	.	.	.
.	.	.	.	.	4f#X/	.	4aa\	.	.	.	.	.	.	.	.	.	.	.	.	.	.	.	.	.	.	.	.	.
=51	=51	=51	=51	=51	=51	=51	=51	=51	=51	=51	=51	=51	=51	=51	=51	=51	=51	=51	=51	=51	=51	=51	=51	=51	=51	=51	=51	=51
1ryy	00r	.	00r	.	4e/	.	4gg\	.	00r	.	.	00r	.	.	00r	.	.	00r	.	.	00r	.	00r	.	00r	.	00r	.
.	.	.	.	.	4d/	.	4ff#X\	.	.	.	.	.	.	.	.	.	.	.	.	.	.	.	.	.	.	.	.	.
!	!	!	!	!	!	!	!LO:LB:g=original	!	!	!	!	!	!	!	!	!	!	!	!	!	!	!	!	!	!	!	!	!
.	.	.	.	.	4c/	.	4ee\	.	.	.	.	.	.	.	.	.	.	.	.	.	.	.	.	.	.	.	.	.
.	.	.	.	.	4B/	.	4dd\	.	.	.	.	.	.	.	.	.	.	.	.	.	.	.	.	.	.	.	.	.
=52	=52	=52	=52	=52	=52	=52	=52	=52	=52	=52	=52	=52	=52	=52	=52	=52	=52	=52	=52	=52	=52	=52	=52	=52	=52	=52	=52	=52
1ryy	.	.	.	.	4a/	.	2cc\	.	.	.	.	.	.	.	.	.	.	.	.	.	.	.	.	.	.	.	.	.
.	.	.	.	.	4g/	.	.	.	.	.	.	.	.	.	.	.	.	.	.	.	.	.	.	.	.	.	.	.
.	.	.	.	.	4f#X/	.	4aa\	.	.	.	.	.	.	.	.	.	.	.	.	.	.	.	.	.	.	.	.	.
.	.	.	.	.	4e/	.	4gg\	.	.	.	.	.	.	.	.	.	.	.	.	.	.	.	.	.	.	.	.	.
=53	=53	=53	=53	=53	=53	=53	=53	=53	=53	=53	=53	=53	=53	=53	=53	=53	=53	=53	=53	=53	=53	=53	=53	=53	=53	=53	=53	=53
1ryy	.	.	.	.	4d/	.	4ff#X\	.	.	.	.	.	.	.	.	.	.	.	.	.	.	.	.	.	.	.	.	.
.	.	.	.	.	4c/	.	4ee\	.	.	.	.	.	.	.	.	.	.	.	.	.	.	.	.	.	.	.	.	.
.	.	.	.	.	4B/	.	4dd\	.	.	.	.	.	.	.	.	.	.	.	.	.	.	.	.	.	.	.	.	.
.	.	.	.	.	4A/	.	4cc\	.	.	.	.	.	.	.	.	.	.	.	.	.	.	.	.	.	.	.	.	.
=54	=54	=54	=54	=54	=54	=54	=54	=54	=54	=54	=54	=54	=54	=54	=54	=54	=54	=54	=54	=54	=54	=54	=54	=54	=54	=54	=54	=54
1ryy	.	.	.	.	4g/	.	2b\	.	.	.	.	.	.	.	.	.	.	.	.	.	.	.	.	.	.	.	.	.
.	.	.	.	.	4e/	.	.	.	.	.	.	.	.	.	.	.	.	.	.	.	.	.	.	.	.	.	.	.
.	.	.	.	.	2c/	.	4ee\	.	.	.	.	.	.	.	.	.	.	.	.	.	.	.	.	.	.	.	.	.
.	.	.	.	.	.	.	4dd\	.	.	.	.	.	.	.	.	.	.	.	.	.	.	.	.	.	.	.	.	.
=55	=55	=55	=55	=55	=55	=55	=55	=55	=55	=55	=55	=55	=55	=55	=55	=55	=55	=55	=55	=55	=55	=55	=55	=55	=55	=55	=55	=55
1ryy	00r	.	00r	.	2A/	.	4cc\	.	00r	.	.	0r	.	.	0r	.	.	00r	.	.	00r	.	00r	.	00r	.	00r	.
.	.	.	.	.	.	.	4b/	.	.	.	.	.	.	.	.	.	.	.	.	.	.	.	.	.	.	.	.	.
.	.	.	.	.	2c/	.	4a/	.	.	.	.	.	.	.	.	.	.	.	.	.	.	.	.	.	.	.	.	.
.	.	.	.	.	.	.	4g/	.	.	.	.	.	.	.	.	.	.	.	.	.	.	.	.	.	.	.	.	.
!	!	!	!	!	!LO:LB:g=original	!	!	!	!	!	!	!	!	!	!	!	!	!	!	!	!	!	!	!	!	!	!	!
=56	=56	=56	=56	=56	=56	=56	=56	=56	=56	=56	=56	=56	=56	=56	=56	=56	=56	=56	=56	=56	=56	=56	=56	=56	=56	=56	=56	=56
1ryy	.	.	.	.	4d/	.	4f#X/	.	.	.	.	.	.	.	.	.	.	.	.	.	.	.	.	.	.	.	.	.
.	.	.	.	.	4c/	.	4d/	.	.	.	.	.	.	.	.	.	.	.	.	.	.	.	.	.	.	.	.	.
.	.	.	.	.	4B/	.	[2g/	.	.	.	.	.	.	.	.	.	.	.	.	.	.	.	.	.	.	.	.	.
.	.	.	.	.	4G/	.	.	.	.	.	.	.	.	.	.	.	.	.	.	.	.	.	.	.	.	.	.	.
=57	=57	=57	=57	=57	=57	=57	=57	=57	=57	=57	=57	=57	=57	=57	=57	=57	=57	=57	=57	=57	=57	=57	=57	=57	=57	=57	=57	=57
1ryy	.	.	.	.	2A/	.	2g/]	.	.	.	.	1r	.	.	1r	.	.	.	.	.	.	.	.	.	.	.	.	.
.	.	.	.	.	2A/	.	2f#X/	.	.	.	.	.	.	.	.	.	.	.	.	.	.	.	.	.	.	.	.	.
=58	=58	=58	=58	=58	=58	=58	=58	=58	=58	=58	=58	=58	=58	=58	=58	=58	=58	=58	=58	=58	=58	=58	=58	=58	=58	=58	=58	=58
1ryy	.	.	.	.	2G/	.	2g/	.	.	.	.	4r	.	.	(1g	In-	.	.	.	.	.	.	.	.	.	.	.	.
.	.	.	.	.	.	.	.	.	.	.	.	4G/	A-	.	.	.	.	.	.	.	.	.	.	.	.	.	.	.
!	!	!	!	!	!	!LO:DY:a:t=for&colon;	!	!	!	!	!	!	!	!	!	!	!	!	!	!	!	!	!	!	!	!	!	!
.	.	.	.	.	2g/	f	2r	.	.	.	.	4B/	.	.	.	.	.	.	.	.	.	.	.	.	.	.	.	.
*	*	*	*custos:d	*	*	*	*	*	*	*	*	*	*	*	*	*	*	*	*	*	*	*	*	*	*	*	*	*
.	.	.	.	.	.	.	.	.	.	.	.	4G/	.	.	.	.	.	.	.	.	.	.	.	.	.	.	.	.
!	!	!	!LO:LB:g=original	!	!	!	!	!	!	!	!	!	!	!	!	!	!	!	!	!	!	!	!	!	!	!	!	!
=59	=59	=59	=59	=59	=59	=59	=59	=59	=59	=59	=59	=59	=59	=59	=59	=59	=59	=59	=59	=59	=59	=59	=59	=59	=59	=59	=59	=59
1ryy	00r	.	1d	.	1a	.	00r	.	00r	.	.	4F#X/	.	.	1a)	-o-	.	00r	.	.	00r	.	00r	.	00r	.	00r	.
.	.	.	.	.	.	.	.	.	.	.	.	4D/	.	.	.	.	.	.	.	.	.	.	.	.	.	.	.	.
.	.	.	.	.	.	.	.	.	.	.	.	4E/	.	.	.	.	.	.	.	.	.	.	.	.	.	.	.	.
.	.	.	.	.	.	.	.	.	.	.	.	4F#/	.	.	.	.	.	.	.	.	.	.	.	.	.	.	.	.
=60	=60	=60	=60	=60	=60	=60	=60	=60	=60	=60	=60	=60	=60	=60	=60	=60	=60	=60	=60	=60	=60	=60	=60	=60	=60	=60	=60	=60
1ryy	.	.	1d	.	2.b/	.	.	.	.	.	.	4G/	.	.	2.b\	-glo-	.	.	.	.	.	.	.	.	.	.	.	.
.	.	.	.	.	.	.	.	.	.	.	.	4A/	.	.	.	.	.	.	.	.	.	.	.	.	.	.	.	.
.	.	.	.	.	.	.	.	.	.	.	.	4B/	.	.	.	.	.	.	.	.	.	.	.	.	.	.	.	.
.	.	.	.	.	4b/	.	.	.	.	.	.	4c/	.	.	4b\	-ri-	.	.	.	.	.	.	.	.	.	.	.	.
=61	=61	=61	=61	=61	=61	=61	=61	=61	=61	=61	=61	=61	=61	=61	=61	=61	=61	=61	=61	=61	=61	=61	=61	=61	=61	=61	=61	=61
1ryy	.	.	1A	.	1f#X	.	.	.	.	.	.	4d\	.	.	1f#X	-a	.	.	.	.	.	.	.	.	.	.	.	.
.	.	.	.	.	.	.	.	.	.	.	.	4e\	.	.	.	.	.	.	.	.	.	.	.	.	.	.	.	.
.	.	.	.	.	.	.	.	.	.	.	.	4d\	.	.	.	.	.	.	.	.	.	.	.	.	.	.	.	.
.	.	.	.	.	.	.	.	.	.	.	.	4c\	.	.	.	.	.	.	.	.	.	.	.	.	.	.	.	.
=62	=62	=62	=62	=62	=62	=62	=62	=62	=62	=62	=62	=62	=62	=62	=62	=62	=62	=62	=62	=62	=62	=62	=62	=62	=62	=62	=62	=62
1ryy	.	.	4d\	.	2.g/	.	.	.	.	.	.	4B\	.	.	2.g\	De-	.	.	.	.	.	.	.	.	.	.	.	.
.	.	.	4B\	.	.	.	.	.	.	.	.	4G\	.	.	.	.	.	.	.	.	.	.	.	.	.	.	.	.
.	.	.	4c\	.	.	.	.	.	.	.	.	4A\	.	.	.	.	.	.	.	.	.	.	.	.	.	.	.	.
.	.	.	4d\	.	4fn/	.	.	.	.	.	.	4B\	.	.	4fn\	-i	.	.	.	.	.	.	.	.	.	.	.	.
!	!	!	!	!	!	!	!	!	!	!	!	!LO:LB:g=original	!	!	!	!	!	!	!	!	!	!	!	!	!	!	!	!
=63	=63	=63	=63	=63	=63	=63	=63	=63	=63	=63	=63	=63	=63	=63	=63	=63	=63	=63	=63	=63	=63	=63	=63	=63	=63	=63	=63	=63
!	!	!	!	!	!	!	!	!LO:DY:a:t=for&colon;	!	!	!	!	!	!	!	!	!	!	!	!	!	!	!	!	!	!	!	!
1ryy	0r	.	1G	.	2e/	.	1cc	f	0r	.	.	4c\	.	.	2e\	pa-	.	(1cc	In	.	0r	.	0r	.	1e	.	1cc	.
.	.	.	.	.	.	.	.	.	.	.	.	4G\	.	.	.	.	.	.	.	.	.	.	.	.	.	.	.	.
.	.	.	.	.	2e/	.	.	.	.	.	.	[2c\	.	.	2e\	-tris	.	.	.	.	.	.	.	.	.	.	.	.
=64	=64	=64	=64	=64	=64	=64	=64	=64	=64	=64	=64	=64	=64	=64	=64	=64	=64	=64	=64	=64	=64	=64	=64	=64	=64	=64	=64	=64
1ryy	.	.	2G/	.	1f	.	1dd	.	.	.	.	2c\]	.	.	1f	a-	.	1dd)	.	.	.	.	.	.	1g	.	1dd	.
.	.	.	2G/	.	.	.	.	.	.	.	.	2B\	.	.	.	.	.	.	.	.	.	.	.	.	.	.	.	.
!	!LO:LB:g=original	!	!	!	!	!	!	!	!	!	!	!	!	!	!	!	!	!	!	!	!	!	!	!	!	!	!	!
=65	=65	=65	=65	=65	=65	=65	=65	=65	=65	=65	=65	=65	=65	=65	=65	=65	=65	=65	=65	=65	=65	=65	=65	=65	=65	=65	=65	=65
1ryy	4C/	.	1g	.	4e/	.	2.ee\	.	4C/	A-	.	2c\	-men	.	4e\	.	.	2.ee\	glo-	.	1r	.	1r	.	1g	.	2.ee\	.
.	4D/	.	.	.	4f/	.	.	.	4D/	.	.	.	.	.	4f\	.	.	.	.	.	.	.	.	.	.	.	.	.
.	4E/	.	.	.	4g/	.	.	.	4E\	.	.	2r	.	.	4g\	.	.	.	.	.	.	.	.	.	.	.	.	.
.	4F\	.	.	.	4a/	.	4ee\	.	4F\	.	.	.	.	.	4a\	.	.	4ee\	-ri-	.	.	.	.	.	.	.	4ee\	.
!	!	!	!	!	!	!	!	!	!LO:LB:g=original	!	!	!	!	!	!	!	!	!LO:LB:g=original	!	!	!	!	!	!	!	!	!	!
=66	=66	=66	=66	=66	=66	=66	=66	=66	=66	=66	=66	=66	=66	=66	=66	=66	=66	=66	=66	=66	=66	=66	=66	=66	=66	=66	=66	=66
1ryy	4G\	.	1g	.	1d	.	1b	.	4G\	.	.	1r	.	.	1d	.	.	1b	-a	.	4g/	.	4g/	.	1d	.	1b	.
.	4A\	.	.	.	.	.	.	.	4A\	.	.	.	.	.	.	.	.	.	.	.	8g/L	.	8g/L	.	.	.	.	.
.	.	.	.	.	.	.	.	.	.	.	.	.	.	.	.	.	.	.	.	.	8g/J	.	8g/J	.	.	.	.	.
.	4G\	.	.	.	.	.	.	.	4G\	.	.	.	.	.	.	.	.	.	.	.	4g/	.	4g/	.	.	.	.	.
.	4F\	.	.	.	.	.	.	.	4F\	.	.	.	.	.	.	.	.	.	.	.	4g/	.	4g/	.	.	.	.	.
!	!	!	!	!	!	!	!	!	!	!	!	!	!	!	!	!	!	!	!	!	!	!	!LO:LB:g=original	!	!	!	!	!
=67	=67	=67	=67	=67	=67	=67	=67	=67	=67	=67	=67	=67	=67	=67	=67	=67	=67	=67	=67	=67	=67	=67	=67	=67	=67	=67	=67	=67
1ryy	4E\	.	1c	.	4g/	.	2.cc\	.	4E\	.	.	1c	In	.	4g\	.	.	2.cc\	De-	.	4c/	.	4cc\	.	2.e/	.	2.cc\	.
.	4C\	.	.	.	4e/	.	.	.	4C/	.	.	.	.	.	4e\	.	.	.	.	.	8c/L	.	8cc\L	.	.	.	.	.
.	.	.	.	.	.	.	.	.	.	.	.	.	.	.	.	.	.	.	.	.	8c/J	.	8cc\J	.	.	.	.	.
.	4D\	.	.	.	4f/	.	.	.	4D/	.	.	.	.	.	4f\	.	.	.	.	.	4c/	.	4cc\	.	.	.	.	.
.	4E\	.	.	.	4g/	.	4b-X\	.	4E/	.	.	.	.	.	4g\	.	.	4b-X\	-i	.	4c/	.	4cc\	.	4g/	.	4b-X/	.
!	!	!	!	!	!	!	!LO:LB:g=original	!	!	!	!	!	!	!	!	!	!	!	!	!	!	!	!	!	!	!	!	!
=68	=68	=68	=68	=68	=68	=68	=68	=68	=68	=68	=68	=68	=68	=68	=68	=68	=68	=68	=68	=68	=68	=68	=68	=68	=68	=68	=68	=68
1ryy	2F\	.	2c\	.	2c/	.	2a/	.	2F\	-men	.	2F/	glo-	.	2c\	.	.	2a\	pa-	.	2c/	.	2cc\	.	4f/	.	2a/	.
.	.	.	.	.	.	.	.	.	.	.	.	.	.	.	.	.	.	.	.	.	.	.	.	.	4r	.	.	.
.	2r	.	2r	.	2a/	.	[2ff\	.	2r	.	.	4A/	-ri-	.	2a\	.	.	2ff\	.	.	2r	.	2r	.	2r	.	2r	.
.	.	.	.	.	.	.	.	.	.	.	.	4B-X/	-a	.	.	.	.	.	.	.	.	.	.	.	.	.	.	.
!	!	!	!	!	!	!	!	!	!	!	!	!	!	!	!LO:LB:g=original	!	!	!	!	!	!	!	!	!	!	!	!	!
=69	=69	=69	=69	=69	=69	=69	=69	=69	=69	=69	=69	=69	=69	=69	=69	=69	=69	=69	=69	=69	=69	=69	=69	=69	=69	=69	=69	=69
!	!	!	!LO:TX:a:t=10	!	!	!	!	!	!	!	!	!	!	!	!	!	!	!	!	!	!LO:TX:a:t=33	!	!LO:TX:a:t=33	!	!LO:TX:a:t=30	!	!LO:TX:a:t=30	!
1ryy	1r	.	00r	.	1g	.	2ff\]	.	1r	.	.	2c\	De-	.	1g	.	.	2ff\	.	.	00r	.	00r	.	00r	.	00r	.
.	.	.	.	.	.	.	[2ee\	.	.	.	.	2c#X\	-i	.	.	.	.	2ee\	.	.	.	.	.	.	.	.	.	.
=70	=70	=70	=70	=70	=70	=70	=70	=70	=70	=70	=70	=70	=70	=70	=70	=70	=70	=70	=70	=70	=70	=70	=70	=70	=70	=70	=70	=70
1ryy	1D	.	.	.	1f	.	2ee\]	.	1D	In	.	2d\	Pa-	.	4f\	-men	.	2ee\	.	.	.	.	.	.	.	.	.	.
.	.	.	.	.	.	.	.	.	.	.	.	.	.	.	4d\	a-	.	.	.	.	.	.	.	.	.	.	.	.
.	.	.	.	.	.	.	[2dd\	.	.	.	.	2A\	-triſ	.	4e\	.	.	2dd\	.	.	.	.	.	.	.	.	.	.
.	.	.	.	.	.	.	.	.	.	.	.	.	.	.	4f\	.	.	.	.	.	.	.	.	.	.	.	.	.
=71	=71	=71	=71	=71	=71	=71	=71	=71	=71	=71	=71	=71	=71	=71	=71	=71	=71	=71	=71	=71	=71	=71	=71	=71	=71	=71	=71	=71
1ryy	1E	.	.	.	4g/	.	2dd\]	.	1E	.	.	1A	A-	.	4g\	.	.	2dd\	.	.	.	.	.	.	.	.	.	.
.	.	.	.	.	4e/	.	.	.	.	.	.	.	.	.	4e\	.	.	.	.	.	.	.	.	.	.	.	.	.
.	.	.	.	.	4f/	.	(2cc#X\	.	.	.	.	.	.	.	4f\	.	.	2cc#X\	-tris	.	.	.	.	.	.	.	.	.
.	.	.	.	.	4g/	.	.	.	.	.	.	.	.	.	4g\	.	.	.	.	.	.	.	.	.	.	.	.	.
=72	=72	=72	=72	=72	=72	=72	=72	=72	=72	=72	=72	=72	=72	=72	=72	=72	=72	=72	=72	=72	=72	=72	=72	=72	=72	=72	=72	=72
1ryy	2.F\	.	.	.	2.a\	.	4dd\)	.	2.F\	glo-	.	2A\	-men	.	2.a\	.	.	4dd\	a-	.	.	.	.	.	.	.	.	.
.	.	.	.	.	.	.	4ee\	.	.	.	.	.	.	.	.	.	.	4ee\	.	.	.	.	.	.	.	.	.	.
.	.	.	.	.	.	.	4ff\	.	.	.	.	2r	.	.	.	.	.	4ff\	.	.	.	.	.	.	.	.	.	.
.	4F\	.	.	.	4a\	.	4gg\	.	4F\	-ri-	.	.	.	.	4a\	.	.	4gg\	.	.	.	.	.	.	.	.	.	.
!	!	!	!	!	!LO:LB:g=original	!	!	!	!	!	!	!	!	!	!	!	!	!	!	!	!	!	!	!	!	!	!	!
=73	=73	=73	=73	=73	=73	=73	=73	=73	=73	=73	=73	=73	=73	=73	=73	=73	=73	=73	=73	=73	=73	=73	=73	=73	=73	=73	=73	=73
1ryy	1C#X	.	00r	.	1e	.	4aa\	.	1C#X	-a	.	1e	A-	.	1e	.	.	4aa\	.	.	00r	.	00r	.	00r	.	00r	.
.	.	.	.	.	.	.	4a/	.	.	.	.	.	.	.	.	.	.	4a/	.	.	.	.	.	.	.	.	.	.
.	.	.	.	.	.	.	4aa\	.	.	.	.	.	.	.	.	.	.	4aa\	.	.	.	.	.	.	.	.	.	.
.	.	.	.	.	.	.	4gg\	.	.	.	.	.	.	.	.	.	.	4gg\	.	.	.	.	.	.	.	.	.	.
=74	=74	=74	=74	=74	=74	=74	=74	=74	=74	=74	=74	=74	=74	=74	=74	=74	=74	=74	=74	=74	=74	=74	=74	=74	=74	=74	=74	=74
1ryy	2D\	.	.	.	2f/	.	4ff\	.	2D\	De-	.	1A	-men	.	2f\	-men	.	4ff\	.	.	.	.	.	.	.	.	.	.
.	.	.	.	.	.	.	4ee\	.	.	.	.	.	.	.	.	.	.	4ee\	.	.	.	.	.	.	.	.	.	.
.	2F\	.	.	.	2a/	.	4dd\	.	2F\	-i	.	.	.	.	2a\	in	.	4dd\	.	.	.	.	.	.	.	.	.	.
.	.	.	.	.	.	.	4cc\	.	.	.	.	.	.	.	.	.	.	4cc\	.	.	.	.	.	.	.	.	.	.
=75	=75	=75	=75	=75	=75	=75	=75	=75	=75	=75	=75	=75	=75	=75	=75	=75	=75	=75	=75	=75	=75	=75	=75	=75	=75	=75	=75	=75
1ryy	2G\	.	.	.	2d/	.	2b-X\	.	2G\	Pa-	.	1G	A-	.	2d\	glo-	.	4b-X\	.	.	.	.	.	.	.	.	.	.
.	.	.	.	.	.	.	.	.	.	.	.	.	.	.	.	.	.	4g\	.	.	.	.	.	.	.	.	.	.
!	!LO:SIC:v:s=2BB-/	!	!	!	!	!	!	!	!	!	!	!	!	!	!	!	!	!	!	!	!	!	!	!	!	!	!	!
.	2BB/	.	.	.	2d/	.	4gg\	.	2BB-X/	-triſ	.	.	.	.	2d\	-ri-	.	4gg\	.	.	.	.	.	.	.	.	.	.
.	.	.	.	.	.	.	4ff\	.	.	.	.	.	.	.	.	.	.	4ff\	.	.	.	.	.	.	.	.	.	.
=76	=76	=76	=76	=76	=76	=76	=76	=76	=76	=76	=76	=76	=76	=76	=76	=76	=76	=76	=76	=76	=76	=76	=76	=76	=76	=76	=76	=76
1ryy	2C/	.	.	.	2e/	.	4ee\	.	2C/	A-	.	1G	-men	.	(2e\	-a	.	4ee\	.	.	.	.	.	.	.	.	.	.
.	.	.	.	.	.	.	4dd\	.	.	.	.	.	.	.	.	.	.	4dd\	.	.	.	.	.	.	.	.	.	.
.	2E\	.	.	.	2g/	.	4cc\	.	2E\	-men	.	.	.	.	2g\)	.	.	4cc\	.	.	.	.	.	.	.	.	.	.
.	.	.	.	.	.	.	4b-X\	.	.	.	.	.	.	.	.	.	.	4b-X\	.	.	.	.	.	.	.	.	.	.
!	!	!	!	!	!	!	!	!	!	!	!	!LO:LB:g=original	!	!	!	!	!	!LO:LB:g=original	!	!	!	!	!	!	!	!	!	!
=77	=77	=77	=77	=77	=77	=77	=77	=77	=77	=77	=77	=77	=77	=77	=77	=77	=77	=77	=77	=77	=77	=77	=77	=77	=77	=77	=77	=77
*	*	*	*	*	*	*	*	*	*	*ij	*	*	*	*	*	*	*	*	*	*	*	*	*	*	*	*	*	*
1ryy	2F\	.	0r	.	2c/	.	2a/	.	2F\	A-	.	0r	.	.	2c/	De-	.	2a\	-men	.	00r	.	00r	.	00r	.	00r	.
.	2AA/	.	.	.	2c/	.	4ff\	.	2AA/	-men	.	.	.	.	2c/	-i	.	4ff\	a-	.	.	.	.	.	.	.	.	.
.	.	.	.	.	.	.	4ee\	.	.	.	.	.	.	.	.	.	.	4ee\	.	.	.	.	.	.	.	.	.	.
=78	=78	=78	=78	=78	=78	=78	=78	=78	=78	=78	=78	=78	=78	=78	=78	=78	=78	=78	=78	=78	=78	=78	=78	=78	=78	=78	=78	=78
1ryy	2BB/	.	.	.	2d/	.	4dd\	.	2BBn/	A-	.	.	.	.	2d\	De-	.	4dd\	.	.	.	.	.	.	.	.	.	.
.	.	.	.	.	.	.	4cc\	.	.	.	.	.	.	.	.	.	.	4cc\	.	.	.	.	.	.	.	.	.	.
.	2D/	.	.	.	2f/	.	4bn/	.	2D/	-men	.	.	.	.	2f\	-i	.	4bn\	.	.	.	.	.	.	.	.	.	.
!	!	!	!	!	!	!	!LO:TX:b:i:t=Verte \ncito.	!	!	!	!	!	!	!	!	!	!	!	!	!	!	!	!	!	!	!	!	!
.	.	.	.	.	.	.	4a/	.	.	.	.	.	.	.	.	.	.	4a\	.	.	.	.	.	.	.	.	.	.
!	!LO:LB:g=original	!	!	!	!	!	!LO:PB:g=original	!	!LO:LB:g=original	!	!	!	!	!	!	!	!	!	!	!	!	!	!	!	!	!	!	!
=79	=79	=79	=79	=79	=79	=79	=79	=79	=79	=79	=79	=79	=79	=79	=79	=79	=79	=79	=79	=79	=79	=79	=79	=79	=79	=79	=79	=79
!	!	!	!LO:SIC:v:s=1B	!	!	!	!	!	!	!	!	!	!	!	!	!	!	!	!	!	!	!	!	!	!	!	!	!
1ryy	2E\	.	1A	.	1e	.	2g#X/	.	2E\	A-	.	2r	.	.	2e\	pa-	.	2g#X\	.	.	.	.	.	.	.	.	.	.
.	2AA/	.	.	.	.	.	[2a/	.	2AA/	-men	.	2A\	In	.	4e\	-tris	.	2a\	-men	.	.	.	.	.	.	.	.	.
*	*	*	*	*	*	*	*	*	*	*Xij	*	*	*	*	*	*	*	*	*	*	*	*	*	*	*	*	*	*
!	!	!	!	!	!	!	!	!	!LO:TX:a:t=Vi&colon;	!	!	!	!	!	!	!	!	!	!	!	!	!	!	!	!	!	!	!
.	.	.	.	.	.	.	.	.	.	.	.	.	.	.	4c\	.	.	.	.	.	.	.	.	.	.	.	.	.
=80	=80	=80	=80	=80	=80	=80	=80	=80	=80	=80	=80	=80	=80	=80	=80	=80	=80	=80	=80	=80	=80	=80	=80	=80	=80	=80	=80	=80
!	!	!	!	!	!	!	!	!	!LO:TX:t=de.	!	!	!	!	!	!	!	!	!	!	!	!	!	!	!	!	!	!	!
1ryy	00r	.	1B	.	4d/	.	2a/]	.	00r	.	.	1B	.	.	1d	a-	.	(2a\	a-	.	.	.	.	.	.	.	.	.
.	.	.	.	.	4B/	.	.	.	.	.	.	.	.	.	.	.	.	.	.	.	.	.	.	.	.	.	.	.
!	!	!	!	!	!	!	!LO:SIC:v:s=2g#/	!	!	!	!	!	!	!	!	!	!	!	!	!	!	!	!	!	!	!	!	!
.	.	.	.	.	4c/	.	2g/	.	.	.	.	.	.	.	.	.	.	2g#X\)	.	.	.	.	.	.	.	.	.	.
.	.	.	.	.	4d/	.	.	.	.	.	.	.	.	.	.	.	.	.	.	.	.	.	.	.	.	.	.	.
!	!	!	!	!	!	!	!	!	!	!	!	!	!	!	!LO:LB:g=original	!	!	!	!	!	!	!	!	!	!	!	!	!
=81	=81	=81	=81	=81	=81	=81	=81	=81	=81	=81	=81	=81	=81	=81	=81	=81	=81	=81	=81	=81	=81	=81	=81	=81	=81	=81	=81	=81
1ryy	.	.	2.c\	.	4e/	.	1a	.	.	.	.	2.c\	glo-	.	4e\	.	.	1a	-men	.	00r	.	00r	.	00r	.	00r	.
.	.	.	.	.	4d/	.	.	.	.	.	.	.	.	.	4d\	.	.	.	.	.	.	.	.	.	.	.	.	.
.	.	.	.	.	4e/	.	.	.	.	.	.	.	.	.	4e\	.	.	.	.	.	.	.	.	.	.	.	.	.
.	.	.	4c\	.	4f/	.	.	.	.	.	.	4c\	-ri-	.	4f\	.	.	.	.	.	.	.	.	.	.	.	.	.
=82	=82	=82	=82	=82	=82	=82	=82	=82	=82	=82	=82	=82	=82	=82	=82	=82	=82	=82	=82	=82	=82	=82	=82	=82	=82	=82	=82	=82
1ryy	.	.	1G#X	.	4e/	.	1b	.	.	.	.	1G#X	-a	.	1e	.	.	1b	a-	.	.	.	.	.	.	.	.	.
.	.	.	.	.	4d/	.	.	.	.	.	.	.	.	.	.	.	.	.	.	.	.	.	.	.	.	.	.	.
.	.	.	.	.	4c/	.	.	.	.	.	.	.	.	.	.	.	.	.	.	.	.	.	.	.	.	.	.	.
.	.	.	.	.	4B/	.	.	.	.	.	.	.	.	.	.	.	.	.	.	.	.	.	.	.	.	.	.	.
!	!	!	!LO:LB:g=original	!	!	!	!	!	!	!	!	!	!	!	!	!	!	!	!	!	!	!	!	!	!	!	!	!
=83	=83	=83	=83	=83	=83	=83	=83	=83	=83	=83	=83	=83	=83	=83	=83	=83	=83	=83	=83	=83	=83	=83	=83	=83	=83	=83	=83	=83
1ryy	.	.	2A/	.	2e/	.	4cc\	.	.	.	.	2A/	De-	.	2e\	.	.	4cc\	.	.	.	.	.	.	.	.	.	.
.	.	.	.	.	.	.	4a/	.	.	.	.	.	.	.	.	.	.	4a\	.	.	.	.	.	.	.	.	.	.
.	.	.	2Gn/	.	2a/	.	4b/	.	.	.	.	2Gn/	-i	.	2a\	.	.	4b\	.	.	.	.	.	.	.	.	.	.
.	.	.	.	.	.	.	4cc#X\	.	.	.	.	.	.	.	.	.	.	4cc#X\	.	.	.	.	.	.	.	.	.	.
=84	=84	=84	=84	=84	=84	=84	=84	=84	=84	=84	=84	=84	=84	=84	=84	=84	=84	=84	=84	=84	=84	=84	=84	=84	=84	=84	=84	=84
1ryy	0r	.	2F/	.	4a/	.	1dd	.	0r	.	.	2F/	Pa-	.	4a\	.	.	1dd	-men	.	.	.	.	.	.	.	.	.
.	.	.	.	.	4g/	.	.	.	.	.	.	.	.	.	4g\	.	.	.	.	.	.	.	.	.	.	.	.	.
.	.	.	2d\	.	4f/	.	.	.	.	.	.	2d\	-triſ	.	4f\	.	.	.	.	.	.	.	.	.	.	.	.	.
.	.	.	.	.	4a/	.	.	.	.	.	.	.	.	.	4a\	.	.	.	.	.	.	.	.	.	.	.	.	.
=85	=85	=85	=85	=85	=85	=85	=85	=85	=85	=85	=85	=85	=85	=85	=85	=85	=85	=85	=85	=85	=85	=85	=85	=85	=85	=85	=85	=85
1ryy	.	.	1A	.	1g	.	1ee	.	.	.	.	2d\	A-	.	1g	.	.	1ee	In	.	00r	.	00r	.	00r	.	00r	.
.	.	.	.	.	.	.	.	.	.	.	.	2c#X\	.	.	.	.	.	.	.	.	.	.	.	.	.	.	.	.
=86	=86	=86	=86	=86	=86	=86	=86	=86	=86	=86	=86	=86	=86	=86	=86	=86	=86	=86	=86	=86	=86	=86	=86	=86	=86	=86	=86	=86
1ryy	4D\	.	2A/	.	4f/	.	2.ff\	.	4D\	A-	.	2d\	-men	.	4f\	.	.	2.ff\	glo-	.	.	.	.	.	.	.	.	.
.	4E\	.	.	.	4g/	.	.	.	4E\	.	.	.	.	.	4g\	.	.	.	.	.	.	.	.	.	.	.	.	.
.	4F\	.	2r	.	4a/	.	.	.	4F\	.	.	2r	.	.	4a\	.	.	.	.	.	.	.	.	.	.	.	.	.
.	4G\	.	.	.	4b-X/	.	4ff\	.	4G\	.	.	.	.	.	4b-X\	.	.	4ff\	-ri-	.	.	.	.	.	.	.	.	.
=87	=87	=87	=87	=87	=87	=87	=87	=87	=87	=87	=87	=87	=87	=87	=87	=87	=87	=87	=87	=87	=87	=87	=87	=87	=87	=87	=87	=87
!	!	!	!LO:TX:a:t=12	!	!	!	!	!	!	!	!	!	!	!	!	!	!	!	!	!	!	!	!	!	!	!	!	!
1ryy	4A\	.	00r	.	1e	.	1cc#X	.	4A\	.	.	0r	.	.	1e	.	.	1cc#X	-a	.	.	.	.	.	.	.	.	.
.	4G\	.	.	.	.	.	.	.	4G\	.	.	.	.	.	.	.	.	.	.	.	.	.	.	.	.	.	.	.
.	4F\	.	.	.	.	.	.	.	4F\	.	.	.	.	.	.	.	.	.	.	.	.	.	.	.	.	.	.	.
.	4E\	.	.	.	.	.	.	.	4E\	.	.	.	.	.	.	.	.	.	.	.	.	.	.	.	.	.	.	.
=88	=88	=88	=88	=88	=88	=88	=88	=88	=88	=88	=88	=88	=88	=88	=88	=88	=88	=88	=88	=88	=88	=88	=88	=88	=88	=88	=88	=88
1ryy	2D\	.	.	.	4f/	.	2.dd\	.	2D\	.	.	.	.	.	4f\	.	.	2.dd\	De-	.	.	.	.	.	.	.	.	.
.	.	.	.	.	4g/	.	.	.	.	.	.	.	.	.	4g\	.	.	.	.	.	.	.	.	.	.	.	.	.
.	2F\	.	.	.	2a/	.	.	.	2F\	.	.	.	.	.	2a\	.	.	.	.	.	.	.	.	.	.	.	.	.
*	*	*	*	*	*	*	*	*	*	*	*	*	*	*	*	*	*	*custos:b-	*	*	*	*	*	*	*	*	*	*
!	!	!	!	!	!	!	!	!	!	!	!	!	!	!	!	!	!	!LO:TX:b:i:t=vertatur	!	!	!	!	!	!	!	!	!	!
.	.	.	.	.	.	.	4ccn\	.	.	.	.	.	.	.	.	.	.	4ccn\	-i	.	.	.	.	.	.	.	.	.
!	!	!	!	!	!LO:LB:g=original	!	!	!	!	!	!	!	!	!	!	!	!	!LO:PB:g=original	!	!	!	!	!	!	!	!	!	!
=89	=89	=89	=89	=89	=89	=89	=89	=89	=89	=89	=89	=89	=89	=89	=89	=89	=89	=89	=89	=89	=89	=89	=89	=89	=89	=89	=89	=89
1ryy	2G\	.	.	.	2d/	.	4b-X\	.	2G\	.	.	1r	.	.	2d\	.	.	(4b-X\	Pa-	.	00r	.	00r	.	00r	.	00r	.
.	.	.	.	.	.	.	4dd\	.	.	.	.	.	.	.	.	.	.	4dd\)	.	.	.	.	.	.	.	.	.	.
.	2E\	.	.	.	2g/	.	4cc\	.	2E\	.	.	.	.	.	2g\	.	.	(4cc\	.	.	.	.	.	.	.	.	.	.
.	.	.	.	.	.	.	4b-\	.	.	.	.	.	.	.	.	.	.	4b-\)	.	.	.	.	.	.	.	.	.	.
=90	=90	=90	=90	=90	=90	=90	=90	=90	=90	=90	=90	=90	=90	=90	=90	=90	=90	=90	=90	=90	=90	=90	=90	=90	=90	=90	=90	=90
1ryy	2F\	.	.	.	1f	.	4a/	.	2F\	-men	.	1c	In	.	1f	-men	.	4a\	.	.	.	.	.	.	.	.	.	.
.	.	.	.	.	.	.	4f/	.	.	.	.	.	.	.	.	.	.	4f/	.	.	.	.	.	.	.	.	.	.
.	2r	.	.	.	.	.	4g/	.	2r	.	.	.	.	.	.	.	.	4g/	.	.	.	.	.	.	.	.	.	.
.	.	.	.	.	.	.	4a/	.	.	.	.	.	.	.	.	.	.	4a/	.	.	.	.	.	.	.	.	.	.
=91	=91	=91	=91	=91	=91	=91	=91	=91	=91	=91	=91	=91	=91	=91	=91	=91	=91	=91	=91	=91	=91	=91	=91	=91	=91	=91	=91	=91
1ryy	2r	.	00r	.	1g	.	4b-X/	.	2r	.	.	2.c\	glo-	.	1g	in	.	4b-X/	.	.	.	.	.	.	.	.	.	.
.	.	.	.	.	.	.	4g/	.	.	.	.	.	.	.	.	.	.	4g\	.	.	.	.	.	.	.	.	.	.
.	2C/	.	.	.	.	.	4a/	.	2C/	In	.	.	.	.	.	.	.	4a\	.	.	.	.	.	.	.	.	.	.
.	.	.	.	.	.	.	4b-/	.	.	.	.	4c\	-ri-	.	.	.	.	4b-\	.	.	.	.	.	.	.	.	.	.
!	!	!	!	!	!	!	!	!	!	!	!	!LO:LB:g=original	!	!	!	!	!	!	!	!	!	!	!	!	!	!	!	!
=92	=92	=92	=92	=92	=92	=92	=92	=92	=92	=92	=92	=92	=92	=92	=92	=92	=92	=92	=92	=92	=92	=92	=92	=92	=92	=92	=92	=92
1ryy	4FF/	.	.	.	2.a/	.	4cc\	.	4FF/	glo-	.	1c	-a	.	2.a\	glo-	.	4cc\	.	.	.	.	.	.	.	.	.	.
!	!	!	!	!	!	!	!	!	!	!	!	!	!	!	!	!	!	!LO:SIC:v:s=4b-\	!	!	!	!	!	!	!	!	!	!
.	4GG/	.	.	.	.	.	4b\	.	4GG/	.	.	.	.	.	.	.	.	4b\	.	.	.	.	.	.	.	.	.	.
!	!	!	!	!	!	!	!LO:LB:g=original	!	!	!	!	!	!	!	!	!	!	!	!	!	!	!	!	!	!	!	!	!
.	4AA/	.	.	.	.	.	4cc\	.	4AA/	-ri-	.	.	.	.	.	.	.	4cc\	.	.	.	.	.	.	.	.	.	.
!	!	!	!	!	!	!	!	!	!LO:SIC:v:s=4BBn/	!	!	!	!	!	!	!	!	!	!	!	!	!	!	!	!	!	!	!
.	4BB/	.	.	.	4a/	.	4dd\	.	4BB-/	.	.	.	.	.	4a\	-ri-	.	4dd\	.	.	.	.	.	.	.	.	.	.
=93	=93	=93	=93	=93	=93	=93	=93	=93	=93	=93	=93	=93	=93	=93	=93	=93	=93	=93	=93	=93	=93	=93	=93	=93	=93	=93	=93	=93
1ryy	1C	.	.	.	1e	.	4cc\	.	1C	-a	.	2c\	De-	.	1e	-a	.	4cc\	.	.	00r	.	00r	.	00r	.	00r	.
!	!	!	!	!	!	!	!	!	!	!	!	!	!	!	!	!	!	!LO:SIC:v:s=4b-\	!	!	!	!	!	!	!	!	!	!
.	.	.	.	.	.	.	4b-X/	.	.	.	.	.	.	.	.	.	.	4b\	.	.	.	.	.	.	.	.	.	.
.	.	.	.	.	.	.	4a/	.	.	.	.	2c\	-i	.	.	.	.	4a\	.	.	.	.	.	.	.	.	.	.
.	.	.	.	.	.	.	4g/	.	.	.	.	.	.	.	.	.	.	4g/	.	.	.	.	.	.	.	.	.	.
=94	=94	=94	=94	=94	=94	=94	=94	=94	=94	=94	=94	=94	=94	=94	=94	=94	=94	=94	=94	=94	=94	=94	=94	=94	=94	=94	=94	=94
1ryy	2FF/	.	.	.	2f/	.	4a/	.	2FF/	De-	.	2c\	Pa-	.	2f\	De-	.	4a\	.	.	.	.	.	.	.	.	.	.
.	.	.	.	.	.	.	4g/	.	.	.	.	.	.	.	.	.	.	4g\	.	.	.	.	.	.	.	.	.	.
.	2F\	.	.	.	2d/	.	4a/	.	2F\	-i	.	2d\	-triſ	.	2d\	-i	.	4a\	.	.	.	.	.	.	.	.	.	.
.	.	.	.	.	.	.	4bn/	.	.	.	.	.	.	.	.	.	.	4bn\	.	.	.	.	.	.	.	.	.	.
!	!	!	!	!	!	!	!	!	!	!	!	!	!	!	!LO:LB:g=original	!	!	!	!	!	!	!	!	!	!	!	!	!
=95	=95	=95	=95	=95	=95	=95	=95	=95	=95	=95	=95	=95	=95	=95	=95	=95	=95	=95	=95	=95	=95	=95	=95	=95	=95	=95	=95	=95
1ryy	4E\	.	00r	.	2.g/	.	1cc	.	4E\	Pa-	.	1c	A-	.	2.g\	pa-	.	1cc	.	.	.	.	.	.	.	.	.	.
.	4D\	.	.	.	.	.	.	.	4D\	.	.	.	.	.	.	.	.	.	.	.	.	.	.	.	.	.	.	.
.	4E\	.	.	.	.	.	.	.	4E\	-triſ	.	.	.	.	.	.	.	.	.	.	.	.	.	.	.	.	.	.
!	!	!	!	!	!	!	!	!	!LO:SIC:v:s=4F#\	!	!	!	!	!	!	!	!	!	!	!	!	!	!	!	!	!	!	!
.	4F#X\	.	.	.	4a/	.	.	.	4F\	.	.	.	.	.	4a\	.	.	.	.	.	.	.	.	.	.	.	.	.
=96	=96	=96	=96	=96	=96	=96	=96	=96	=96	=96	=96	=96	=96	=96	=96	=96	=96	=96	=96	=96	=96	=96	=96	=96	=96	=96	=96	=96
1ryy	1G	.	.	.	2d/	.	4bn/	.	1G	A-	.	2G/	-men	.	2d\	.	.	4bn\	.	.	.	.	.	.	.	.	.	.
.	.	.	.	.	.	.	4a/	.	.	.	.	.	.	.	.	.	.	4a\	.	.	.	.	.	.	.	.	.	.
.	.	.	.	.	2e/	.	4b/	.	.	.	.	2r	.	.	2e\	-tris	.	4b\	.	.	.	.	.	.	.	.	.	.
.	.	.	.	.	.	.	4cc#X/	.	.	.	.	.	.	.	.	.	.	4cc#X\	.	.	.	.	.	.	.	.	.	.
=97	=97	=97	=97	=97	=97	=97	=97	=97	=97	=97	=97	=97	=97	=97	=97	=97	=97	=97	=97	=97	=97	=97	=97	=97	=97	=97	=97	=97
!	!	!	!	!	!	!	!	!	!LO:SIC:v:s=4F#\	!	!	!	!	!	!	!	!	!	!	!	!	!	!	!	!	!	!	!
1ryy	4F#X\	.	.	.	2.a/	.	1dd	.	4F\	.	.	0r	.	.	2.a\	De-	.	1dd	.	.	00r	.	00r	.	0r	.	0r	.
.	4E\	.	.	.	.	.	.	.	4E\	.	.	.	.	.	.	.	.	.	.	.	.	.	.	.	.	.	.	.
!	!	!	!	!	!	!	!	!	!LO:SIC:v:s=4F#\	!	!	!	!	!	!	!	!	!	!	!	!	!	!	!	!	!	!	!
.	4F#\	.	.	.	.	.	.	.	4F\	.	.	.	.	.	.	.	.	.	.	.	.	.	.	.	.	.	.	.
.	4G#X\	.	.	.	4bn/	.	.	.	4G#X\	.	.	.	.	.	4bn\	-i	.	.	.	.	.	.	.	.	.	.	.	.
!	!LO:LB:g=original	!	!	!	!	!	!	!	!	!	!	!	!	!	!	!	!	!	!	!	!	!	!	!	!	!	!	!
=98	=98	=98	=98	=98	=98	=98	=98	=98	=98	=98	=98	=98	=98	=98	=98	=98	=98	=98	=98	=98	=98	=98	=98	=98	=98	=98	=98	=98
1ryy	1A	.	.	.	2e/	.	4ccn\	.	1A	.	.	.	.	.	2e\	pa-	.	4ccn\	.	.	.	.	.	.	.	.	.	.
.	.	.	.	.	.	.	4b\	.	.	.	.	.	.	.	.	.	.	4b\	.	.	.	.	.	.	.	.	.	.
.	.	.	.	.	2cc\	.	4cc\	.	.	.	.	.	.	.	2cc\	-tris	.	4cc\	.	.	.	.	.	.	.	.	.	.
.	.	.	.	.	.	.	4dd\	.	.	.	.	.	.	.	.	.	.	4dd\	.	.	.	.	.	.	.	.	.	.
=99	=99	=99	=99	=99	=99	=99	=99	=99	=99	=99	=99	=99	=99	=99	=99	=99	=99	=99	=99	=99	=99	=99	=99	=99	=99	=99	=99	=99
!	!	!	!	!	!	!	!	!	!LO:SIC:v:s=4G#\	!	!	!	!	!	!	!	!	!	!	!	!	!	!	!	!	!	!	!
1ryy	4G#X\	.	1e	.	4b/	.	[1ee	.	4Gn\	.	.	1B	A-	.	4b\	a-	.	[1ee	.	.	.	.	.	.	2r	.	2r	.
!	!	!	!	!	!	!	!	!	!LO:SIC:v:s=4F#\	!	!	!	!	!	!	!	!	!	!	!	!	!	!	!	!	!	!	!
.	4F#X\	.	.	.	4a/	.	.	.	4F\	.	.	.	.	.	4a\	.	.	.	.	.	.	.	.	.	.	.	.	.
!	!	!	!	!	!	!	!	!	!LO:SIC:v:s=4G#\	!	!	!	!	!	!	!	!	!	!	!	!	!	!	!	!	!	!	!
.	4G#\	.	.	.	4b/	.	.	.	4G\	.	.	.	.	.	4b\	.	.	.	.	.	.	.	.	.	2ee\	.	[2ee\	.
.	4E\	.	.	.	4g#X/	.	.	.	4E\	.	.	.	.	.	4g#X\	.	.	.	.	.	.	.	.	.	.	.	.	.
=100	=100	=100	=100	=100	=100	=100	=100	=100	=100	=100	=100	=100	=100	=100	=100	=100	=100	=100	=100	=100	=100	=100	=100	=100	=100	=100	=100	=100
1ryy	4F\	.	4f\	.	2a/	.	2ee\]	.	2F\	.	.	2A\	.	.	2a\	.	.	2ee\]	.	.	.	.	.	.	2ee\	.	2ee\]	.
.	4A\	.	4a\	.	.	.	.	.	.	.	.	.	.	.	.	.	.	.	.	.	.	.	.	.	.	.	.	.
.	4B\	.	4b\	.	2f/	.	[2dd\	.	2B\	.	.	[2B\	.	.	2f\	-men	.	[2dd\	.	.	.	.	.	.	2dd\	.	[2dd\	.
.	4A\	.	4a\	.	.	.	.	.	.	.	.	.	.	.	.	.	.	.	.	.	.	.	.	.	.	.	.	.
!	!	!	!	!	!	!	!	!	!	!	!	!	!	!	!	!	!	!LO:LB:g=original	!	!	!	!	!	!	!	!	!	!
=101	=101	=101	=101	=101	=101	=101	=101	=101	=101	=101	=101	=101	=101	=101	=101	=101	=101	=101	=101	=101	=101	=101	=101	=101	=101	=101	=101	=101
1ryy	4G#X\	.	4g#X\	.	1e	.	2dd\]	.	2G#X\	.	.	2B\]	.	.	1e	a-	.	2dd\]	.	.	1r	.	1r	.	2dd\	.	2dd\]	.
.	4E\	.	4e\	.	.	.	.	.	.	.	.	.	.	.	.	.	.	.	.	.	.	.	.	.	.	.	.	.
.	4A\	.	4a\	.	.	.	2cc\	.	2A\	.	.	[2A\	.	.	.	.	.	2cc\	-tris	.	.	.	.	.	4cc\	.	2cc\	.
.	4C/	.	4c\	.	.	.	.	.	.	.	.	.	.	.	.	.	.	.	.	.	.	.	.	.	4a\	.	.	.
=102	=102	=102	=102	=102	=102	=102	=102	=102	=102	=102	=102	=102	=102	=102	=102	=102	=102	=102	=102	=102	=102	=102	=102	=102	=102	=102	=102	=102
1ryy	2D\	.	2d\	.	2f/	.	1b	.	2D\	.	.	2A\]	.	.	2f\	.	.	1b	a-	.	2r	.	2r	.	2a\	.	1bn	.
.	2E\	.	2e\	.	2e/	.	.	.	2E\	.	.	2G#X/	.	.	2e\	.	.	.	.	.	2e/	.	2e/	.	2g#X\	.	.	.
!	!	!	!	!	!	!	!	!	!	!	!	!	!	!	!	!	!	!	!	!	!	!	!	!	!LO:LB:g=original	!	!LO:LB:g=original	!
=103	=103	=103	=103	=103	=103	=103	=103	=103	=103	=103	=103	=103	=103	=103	=103	=103	=103	=103	=103	=103	=103	=103	=103	=103	=103	=103	=103	=103
!	!	!	!	!	!	!LO:DY:a:t=pia&colon;	!	!LO:DY:a:t=p.	!	!	!	!	!	!	!	!	!	!	!	!	!	!	!	!	!	!	!	!
1ryy	2AA/	.	2A/	.	4A/	p	2a/	p	2AA/	-men.	.	2A/	-men	.	2e\	-men	.	2a\	-men	.	2e/	.	2e/	.	2a/	.	2a/	.
.	.	.	.	.	4a/	.	.	.	.	.	.	.	.	.	.	.	.	.	.	.	.	.	.	.	.	.	.	.
!	!	!	!	!	!	!	!	!	!LO:TX:a:i:t=Retro	!	!	!	!	!	!	!	!	!	!	!	!	!	!	!	!	!	!	!
.	2r	.	2r	.	4cc/	.	2aa\	.	2r	.	.	2r	.	.	2r	.	.	2r	.	.	2r	.	2r	.	2r	.	2r	.
.	.	.	.	.	4a/	.	.	.	.	.	.	.	.	.	.	.	.	.	.	.	.	.	.	.	.	.	.	.
=104	=104	=104	=104	=104	=104	=104	=104	=104	=104	=104	=104	=104	=104	=104	=104	=104	=104	=104	=104	=104	=104	=104	=104	=104	=104	=104	=104	=104
!	!LO:TX:a:t=20	!	!LO:TX:a:t=13.	!	!	!	!	!	!LO:TX:a:t=20.	!	!	!LO:TX:a:t=13.	!	!	!	!	!	!LO:TX:a:t=13.	!	!	!LO:TX:a:t=36	!	!LO:TX:a:t=36	!	!LO:TX:a:t=35.	!	!LO:TX:a:t=35	!
!	!	!	!	!	!	!	!	!	!	!	!	!	!	!	!	!	!	!	!	!	!LO:TX:b:t=Pauſ.	!	!	!	!	!	!	!
1ryy	00r	.	00r	.	4g#X/	.	1bb	.	00r	.	.	00r	.	.	00r	.	.	00r	.	.	1r	.	00r	.	00r	.	00r	.
.	.	.	.	.	4f/	.	.	.	.	.	.	.	.	.	.	.	.	.	.	.	.	.	.	.	.	.	.	.
.	.	.	.	.	4g#/	.	.	.	.	.	.	.	.	.	.	.	.	.	.	.	.	.	.	.	.	.	.	.
.	.	.	.	.	4e/	.	.	.	.	.	.	.	.	.	.	.	.	.	.	.	.	.	.	.	.	.	.	.
!	!	!	!	!	!LO:LB:g=original	!	!	!	!	!	!	!	!	!	!	!	!	!	!	!	!	!	!	!	!	!	!	!
=105	=105	=105	=105	=105	=105	=105	=105	=105	=105	=105	=105	=105	=105	=105	=105	=105	=105	=105	=105	=105	=105	=105	=105	=105	=105	=105	=105	=105
1ryy	.	.	.	.	4a/	.	2.ccc\	.	.	.	.	.	.	.	.	.	.	.	.	.	1r	.	.	.	.	.	.	.
.	.	.	.	.	4b/	.	.	.	.	.	.	.	.	.	.	.	.	.	.	.	.	.	.	.	.	.	.	.
.	.	.	.	.	4cc/	.	.	.	.	.	.	.	.	.	.	.	.	.	.	.	.	.	.	.	.	.	.	.
!	!	!	!	!	!	!	!LO:LB:g=original	!	!	!	!	!	!	!	!	!	!	!	!	!	!	!	!	!	!	!	!	!
.	.	.	.	.	4dd/	.	4ccc\	.	.	.	.	.	.	.	.	.	.	.	.	.	.	.	.	.	.	.	.	.
=106	=106	=106	=106	=106	=106	=106	=106	=106	=106	=106	=106	=106	=106	=106	=106	=106	=106	=106	=106	=106	=106	=106	=106	=106	=106	=106	=106	=106
1ryy	.	.	.	.	4ee\	.	1gg#X	.	.	.	.	.	.	.	.	.	.	.	.	.	1r	.	.	.	.	.	.	.
.	.	.	.	.	4ff\	.	.	.	.	.	.	.	.	.	.	.	.	.	.	.	.	.	.	.	.	.	.	.
.	.	.	.	.	4ee\	.	.	.	.	.	.	.	.	.	.	.	.	.	.	.	.	.	.	.	.	.	.	.
.	.	.	.	.	4dd\	.	.	.	.	.	.	.	.	.	.	.	.	.	.	.	.	.	.	.	.	.	.	.
=107	=107	=107	=107	=107	=107	=107	=107	=107	=107	=107	=107	=107	=107	=107	=107	=107	=107	=107	=107	=107	=107	=107	=107	=107	=107	=107	=107	=107
1ryy	.	.	.	.	4cc\	.	4aa\	.	.	.	.	.	.	.	.	.	.	.	.	.	1r	.	.	.	.	.	.	.
.	.	.	.	.	4a\	.	4a/	.	.	.	.	.	.	.	.	.	.	.	.	.	.	.	.	.	.	.	.	.
.	.	.	.	.	2c/	.	4aa\	.	.	.	.	.	.	.	.	.	.	.	.	.	.	.	.	.	.	.	.	.
.	.	.	.	.	.	.	4gg\	.	.	.	.	.	.	.	.	.	.	.	.	.	.	.	.	.	.	.	.	.
=108	=108	=108	=108	=108	=108	=108	=108	=108	=108	=108	=108	=108	=108	=108	=108	=108	=108	=108	=108	=108	=108	=108	=108	=108	=108	=108	=108	=108
1ryy	00r	.	00r	.	2d/	.	4ff\	.	00r	.	.	00r	.	.	00r	.	.	00r	.	.	1r	.	00r	.	00r	.	00r	.
.	.	.	.	.	.	.	4ee\	.	.	.	.	.	.	.	.	.	.	.	.	.	.	.	.	.	.	.	.	.
.	.	.	.	.	2f/	.	4dd\	.	.	.	.	.	.	.	.	.	.	.	.	.	.	.	.	.	.	.	.	.
.	.	.	.	.	.	.	4cc\	.	.	.	.	.	.	.	.	.	.	.	.	.	.	.	.	.	.	.	.	.
=109	=109	=109	=109	=109	=109	=109	=109	=109	=109	=109	=109	=109	=109	=109	=109	=109	=109	=109	=109	=109	=109	=109	=109	=109	=109	=109	=109	=109
1ryy	.	.	.	.	2g/	.	2b\	.	.	.	.	.	.	.	.	.	.	.	.	.	1r	.	.	.	.	.	.	.
.	.	.	.	.	2B/	.	4gg\	.	.	.	.	.	.	.	.	.	.	.	.	.	.	.	.	.	.	.	.	.
.	.	.	.	.	.	.	4ff\	.	.	.	.	.	.	.	.	.	.	.	.	.	.	.	.	.	.	.	.	.
=110	=110	=110	=110	=110	=110	=110	=110	=110	=110	=110	=110	=110	=110	=110	=110	=110	=110	=110	=110	=110	=110	=110	=110	=110	=110	=110	=110	=110
1ryy	.	.	.	.	2c/	.	4ee\	.	.	.	.	.	.	.	.	.	.	.	.	.	1r	.	.	.	.	.	.	.
.	.	.	.	.	.	.	4dd\	.	.	.	.	.	.	.	.	.	.	.	.	.	.	.	.	.	.	.	.	.
.	.	.	.	.	2e/	.	4cc\	.	.	.	.	.	.	.	.	.	.	.	.	.	.	.	.	.	.	.	.	.
.	.	.	.	.	.	.	4b\	.	.	.	.	.	.	.	.	.	.	.	.	.	.	.	.	.	.	.	.	.
=111	=111	=111	=111	=111	=111	=111	=111	=111	=111	=111	=111	=111	=111	=111	=111	=111	=111	=111	=111	=111	=111	=111	=111	=111	=111	=111	=111	=111
1ryy	.	.	.	.	4f/	.	2a/	.	.	.	.	.	.	.	.	.	.	.	.	.	1r	.	.	.	.	.	.	.
.	.	.	.	.	4d/	.	.	.	.	.	.	.	.	.	.	.	.	.	.	.	.	.	.	.	.	.	.	.
.	.	.	.	.	2A/	.	4ff\	.	.	.	.	.	.	.	.	.	.	.	.	.	.	.	.	.	.	.	.	.
.	.	.	.	.	.	.	4ee\	.	.	.	.	.	.	.	.	.	.	.	.	.	.	.	.	.	.	.	.	.
=112	=112	=112	=112	=112	=112	=112	=112	=112	=112	=112	=112	=112	=112	=112	=112	=112	=112	=112	=112	=112	=112	=112	=112	=112	=112	=112	=112	=112
1ryy	00r	.	00r	.	2B/	.	4dd\	.	00r	.	.	00r	.	.	00r	.	.	00r	.	.	1r	.	00r	.	00r	.	00r	.
.	.	.	.	.	.	.	4cc\	.	.	.	.	.	.	.	.	.	.	.	.	.	.	.	.	.	.	.	.	.
.	.	.	.	.	2d/	.	4b/	.	.	.	.	.	.	.	.	.	.	.	.	.	.	.	.	.	.	.	.	.
.	.	.	.	.	.	.	4a/	.	.	.	.	.	.	.	.	.	.	.	.	.	.	.	.	.	.	.	.	.
=113	=113	=113	=113	=113	=113	=113	=113	=113	=113	=113	=113	=113	=113	=113	=113	=113	=113	=113	=113	=113	=113	=113	=113	=113	=113	=113	=113	=113
1ryy	.	.	.	.	4e/	.	2g/	.	.	.	.	.	.	.	.	.	.	.	.	.	1r	.	.	.	.	.	.	.
.	.	.	.	.	4c/	.	.	.	.	.	.	.	.	.	.	.	.	.	.	.	.	.	.	.	.	.	.	.
.	.	.	.	.	2G/	.	4ee\	.	.	.	.	.	.	.	.	.	.	.	.	.	.	.	.	.	.	.	.	.
.	.	.	.	.	.	.	4dd\	.	.	.	.	.	.	.	.	.	.	.	.	.	.	.	.	.	.	.	.	.
=114	=114	=114	=114	=114	=114	=114	=114	=114	=114	=114	=114	=114	=114	=114	=114	=114	=114	=114	=114	=114	=114	=114	=114	=114	=114	=114	=114	=114
1ryy	.	.	.	.	2A/	.	4cc\	.	.	.	.	.	.	.	.	.	.	.	.	.	1r	.	.	.	.	.	.	.
.	.	.	.	.	.	.	4b/	.	.	.	.	.	.	.	.	.	.	.	.	.	.	.	.	.	.	.	.	.
.	.	.	.	.	2c/	.	4a/	.	.	.	.	.	.	.	.	.	.	.	.	.	.	.	.	.	.	.	.	.
.	.	.	.	.	.	.	4g/	.	.	.	.	.	.	.	.	.	.	.	.	.	.	.	.	.	.	.	.	.
=115	=115	=115	=115	=115	=115	=115	=115	=115	=115	=115	=115	=115	=115	=115	=115	=115	=115	=115	=115	=115	=115	=115	=115	=115	=115	=115	=115	=115
1ryy	.	.	.	.	2d/	.	2f/	.	.	.	.	.	.	.	.	.	.	.	.	.	1r	.	.	.	.	.	.	.
.	.	.	.	.	2f/	.	4dd\	.	.	.	.	.	.	.	.	.	.	.	.	.	.	.	.	.	.	.	.	.
.	.	.	.	.	.	.	4cc\	.	.	.	.	.	.	.	.	.	.	.	.	.	.	.	.	.	.	.	.	.
=116	=116	=116	=116	=116	=116	=116	=116	=116	=116	=116	=116	=116	=116	=116	=116	=116	=116	=116	=116	=116	=116	=116	=116	=116	=116	=116	=116	=116
1ryy	00r	.	1r	.	2g/	.	4b/	.	00r	.	.	1r	.	.	1r	.	.	1r	.	.	1r	.	00r	.	00r	.	00r	.
.	.	.	.	.	.	.	4a/	.	.	.	.	.	.	.	.	.	.	.	.	.	.	.	.	.	.	.	.	.
.	.	.	.	.	2B/	.	4g/	.	.	.	.	.	.	.	.	.	.	.	.	.	.	.	.	.	.	.	.	.
.	.	.	.	.	.	.	4f/	.	.	.	.	.	.	.	.	.	.	.	.	.	.	.	.	.	.	.	.	.
!	!	!	!	!	!	!	!	!	!	!	!	!LO:LB:g=original	!	!	!	!	!	!	!	!	!	!	!	!	!	!	!	!
=117	=117	=117	=117	=117	=117	=117	=117	=117	=117	=117	=117	=117	=117	=117	=117	=117	=117	=117	=117	=117	=117	=117	=117	=117	=117	=117	=117	=117
*	*	*	*	*	*	*	*custos:cc	*	*	*	*	*	*	*	*	*	*	*	*	*	*	*	*	*	*	*	*	*
!	!	!	!	!	!	!LO:DY:a:t=for&colon;	!	!	!	!	!	!	!	!	!	!	!	!	!	!	!	!	!	!	!	!	!	!
1ryy	.	.	1c	.	2c/	f	2e/	.	.	.	.	1c	In	.	2r	.	.	2r	.	.	1r	.	.	.	.	.	.	.
!	!	!	!	!	!	!	!LO:LB:g=original	!	!	!	!	!	!	!	!	!	!	!	!	!	!	!	!	!	!	!	!	!
.	.	.	.	.	4d/	.	[2cc\	.	.	.	.	.	.	.	2e\	In	.	[2cc\	In	.	.	.	.	.	.	.	.	.
.	.	.	.	.	4e/	.	.	.	.	.	.	.	.	.	.	.	.	.	.	.	.	.	.	.	.	.	.	.
!	!	!	!LO:LB:g=original	!	!	!	!	!	!	!	!	!	!	!	!LO:LB:g=original	!	!	!	!	!	!	!	!	!	!	!	!	!
=118	=118	=118	=118	=118	=118	=118	=118	=118	=118	=118	=118	=118	=118	=118	=118	=118	=118	=118	=118	=118	=118	=118	=118	=118	=118	=118	=118	=118
1ryy	.	.	1d	.	4f/	.	2cc\]	.	.	.	.	1d	.	.	(4f\	glo-	.	2cc\]	.	.	1r	.	.	.	.	.	.	.
.	.	.	.	.	4d/	.	.	.	.	.	.	.	.	.	4d\)	.	.	.	.	.	.	.	.	.	.	.	.	.
.	.	.	.	.	4e/	.	2b\	.	.	.	.	.	.	.	4e\	-ri-	.	2b\	.	.	.	.	.	.	.	.	.	.
.	.	.	.	.	4f/	.	.	.	.	.	.	.	.	.	4f\	-a	.	.	.	.	.	.	.	.	.	.	.	.
=119	=119	=119	=119	=119	=119	=119	=119	=119	=119	=119	=119	=119	=119	=119	=119	=119	=119	=119	=119	=119	=119	=119	=119	=119	=119	=119	=119	=119
1ryy	.	.	2.e\	.	4g/	.	1cc	.	.	.	.	2.e\	glo-	.	(4g\	De-	.	1cc	glo-	.	1r	.	.	.	.	.	.	.
.	.	.	.	.	4f/	.	.	.	.	.	.	.	.	.	4f\)	.	.	.	.	.	.	.	.	.	.	.	.	.
.	.	.	.	.	4g/	.	.	.	.	.	.	.	.	.	(4g\	-i	.	.	.	.	.	.	.	.	.	.	.	.
.	.	.	4e\	.	4a/	.	.	.	.	.	.	4e\	-ri-	.	4a\)	.	.	.	.	.	.	.	.	.	.	.	.	.
!	!	!	!	!	!LO:LB:g=original	!	!	!	!	!	!	!	!	!	!	!	!	!	!	!	!	!	!	!	!	!	!	!
=120	=120	=120	=120	=120	=120	=120	=120	=120	=120	=120	=120	=120	=120	=120	=120	=120	=120	=120	=120	=120	=120	=120	=120	=120	=120	=120	=120	=120
1ryy	00r	.	1B	.	4g/	.	1dd	.	00r	.	.	1B	-a	.	(4g\	pa-	.	1dd	-ri-	.	1r	.	00r	.	00r	.	00r	.
.	.	.	.	.	4f/	.	.	.	.	.	.	.	.	.	4f\	.	.	.	.	.	.	.	.	.	.	.	.	.
.	.	.	.	.	4e/	.	.	.	.	.	.	.	.	.	4e\	.	.	.	.	.	.	.	.	.	.	.	.	.
.	.	.	.	.	4d/	.	.	.	.	.	.	.	.	.	4d\)	.	.	.	.	.	.	.	.	.	.	.	.	.
=121	=121	=121	=121	=121	=121	=121	=121	=121	=121	=121	=121	=121	=121	=121	=121	=121	=121	=121	=121	=121	=121	=121	=121	=121	=121	=121	=121	=121
1ryy	.	.	2.c\	.	2e/	.	2g/	.	.	.	.	2.c\	De-	.	2e\	-tris	.	2g\	-a	.	1r	.	.	.	.	.	.	.
.	.	.	.	.	2cc\	.	2ee\	.	.	.	.	.	.	.	(2cc\	a-	.	(2ee\	De-	.	.	.	.	.	.	.	.	.
.	.	.	4c\	.	.	.	.	.	.	.	.	4c\	-i	.	.	.	.	.	.	.	.	.	.	.	.	.	.	.
=122	=122	=122	=122	=122	=122	=122	=122	=122	=122	=122	=122	=122	=122	=122	=122	=122	=122	=122	=122	=122	=122	=122	=122	=122	=122	=122	=122	=122
1ryy	.	.	2d\	.	4cc\	.	2ff#X\	.	.	.	.	2d\	Pa-	.	2cc\)	.	.	2ff#X\)	[[-i]]	.	1r	.	.	.	.	.	.	.
.	.	.	.	.	4a\	.	.	.	.	.	.	.	.	.	.	.	.	.	.	.	.	.	.	.	.	.	.	.
.	.	.	2d\	.	4dd\	.	2gg\	.	.	.	.	2B\	-triſ	.	2b\	.	.	2gg\	-i	.	.	.	.	.	.	.	.	.
.	.	.	.	.	4b\	.	.	.	.	.	.	.	.	.	.	.	.	.	.	.	.	.	.	.	.	.	.	.
=123	=123	=123	=123	=123	=123	=123	=123	=123	=123	=123	=123	=123	=123	=123	=123	=123	=123	=123	=123	=123	=123	=123	=123	=123	=123	=123	=123	=123
1ryy	.	.	1d	.	1cc	.	2gg\	.	.	.	.	1A	A-	.	1cc	-men	.	(2gg\	pa-	.	1r	.	.	.	.	.	.	.
.	.	.	.	.	.	.	2ff#X\	.	.	.	.	.	.	.	.	.	.	2ff#X\)	.	.	.	.	.	.	.	.	.	.
=124	=124	=124	=124	=124	=124	=124	=124	=124	=124	=124	=124	=124	=124	=124	=124	=124	=124	=124	=124	=124	=124	=124	=124	=124	=124	=124	=124	=124
1ryy	1G	.	2d\	.	4b/	.	2gg\	.	1G	In	.	2G/	-men	.	4b\	a-	.	2gg\	-tris	.	1r	.	00r	.	00r	.	00r	.
.	.	.	.	.	4g/	.	.	.	.	.	.	.	.	.	4g\	.	.	.	.	.	.	.	.	.	.	.	.	.
.	.	.	2g\	.	4a/	.	2r	.	.	.	.	[2G/	A-	.	4a\	.	.	2r	.	.	.	.	.	.	.	.	.	.
.	.	.	.	.	4b/	.	.	.	.	.	.	.	.	.	4b\	.	.	.	.	.	.	.	.	.	.	.	.	.
=125	=125	=125	=125	=125	=125	=125	=125	=125	=125	=125	=125	=125	=125	=125	=125	=125	=125	=125	=125	=125	=125	=125	=125	=125	=125	=125	=125	=125
!	!	!	!	!	!	!	!LO:TX:a:t=6	!	!	!	!	!	!	!	!	!	!	!LO:TX:a:t=6	!	!	!	!	!	!	!	!	!	!
1ryy	1A	.	2g\	.	4cc\	.	00r	.	1A	.	.	2G/]	.	.	4cc\	.	.	00r	.	.	1r	.	.	.	.	.	.	.
.	.	.	.	.	4a\	.	.	.	.	.	.	.	.	.	4a\	.	.	.	.	.	.	.	.	.	.	.	.	.
.	.	.	2f#X\	.	4b\	.	.	.	.	.	.	2F#X/	.	.	4b\	.	.	.	.	.	.	.	.	.	.	.	.	.
.	.	.	.	.	4cc\	.	.	.	.	.	.	.	.	.	4cc\	.	.	.	.	.	.	.	.	.	.	.	.	.
=126	=126	=126	=126	=126	=126	=126	=126	=126	=126	=126	=126	=126	=126	=126	=126	=126	=126	=126	=126	=126	=126	=126	=126	=126	=126	=126	=126	=126
1ryy	2.B\	.	2.g\	.	4dd\	.	.	.	2.B\	glo-	.	1G	-men	.	4dd\	.	.	.	.	.	1r	.	.	.	.	.	.	.
.	.	.	.	.	4cc\	.	.	.	.	.	.	.	.	.	4cc\	.	.	.	.	.	.	.	.	.	.	.	.	.
.	.	.	.	.	4dd\	.	.	.	.	.	.	.	.	.	4dd\	.	.	.	.	.	.	.	.	.	.	.	.	.
.	4B\	.	4g\	.	4ee\	.	.	.	4B\	-ri-	.	.	.	.	4ee\	.	.	.	.	.	.	.	.	.	.	.	.	.
=127	=127	=127	=127	=127	=127	=127	=127	=127	=127	=127	=127	=127	=127	=127	=127	=127	=127	=127	=127	=127	=127	=127	=127	=127	=127	=127	=127	=127
1ryy	1F#X	.	1a	.	4dd\	.	.	.	1F#X	-a	.	2A/	A-	.	4dd\	.	.	.	.	.	1r	.	.	.	.	.	.	.
.	.	.	.	.	4cc\	.	.	.	.	.	.	.	.	.	4cc\	.	.	.	.	.	.	.	.	.	.	.	.	.
.	.	.	.	.	4b\	.	.	.	.	.	.	2A/	-men	.	4b\	.	.	.	.	.	.	.	.	.	.	.	.	.
.	.	.	.	.	4a\	.	.	.	.	.	.	.	.	.	4a\	.	.	.	.	.	.	.	.	.	.	.	.	.
=128	=128	=128	=128	=128	=128	=128	=128	=128	=128	=128	=128	=128	=128	=128	=128	=128	=128	=128	=128	=128	=128	=128	=128	=128	=128	=128	=128	=128
*	*	*	*	*	*	*	*	*	*	*	*	*	*ij	*	*	*	*	*	*	*	*	*	*	*	*	*	*	*
1ryy	2G\	.	2d\	.	4b/	.	.	.	2.G\	De-	.	2d\	A-	.	4b\	.	.	.	.	.	1r	.	00r	.	00r	.	00r	.
.	.	.	.	.	4g/	.	.	.	.	.	.	.	.	.	4g\	.	.	.	.	.	.	.	.	.	.	.	.	.
.	2Fn\	.	2g\	.	4a/	.	.	.	.	.	.	2d\	-men	.	4a\	.	.	.	.	.	.	.	.	.	.	.	.	.
.	.	.	.	.	4b/	.	.	.	4Fn\	-i	.	.	.	.	4b\	.	.	.	.	.	.	.	.	.	.	.	.	.
!	!	!	!	!	!	!	!	!	!	!	!	!	!	!	!LO:LB:g=original	!	!	!	!	!	!	!	!	!	!	!	!	!
=129	=129	=129	=129	=129	=129	=129	=129	=129	=129	=129	=129	=129	=129	=129	=129	=129	=129	=129	=129	=129	=129	=129	=129	=129	=129	=129	=129	=129
1ryy	2E\	.	2g\	.	4cc\	.	0r	.	2E\	Pa-	.	2G/	a-	.	4cc\	.	.	0r	.	.	1r	.	.	.	.	.	.	.
.	.	.	.	.	4g/	.	.	.	.	.	.	.	.	.	4g\	.	.	.	.	.	.	.	.	.	.	.	.	.
.	4D/	.	4f\	.	[2cc\	.	.	.	4D/	-triſ	.	2e\	-men	.	2cc\	-men	.	.	.	.	.	.	.	.	.	.	.	.
*	*	*	*	*	*	*	*	*	*	*	*	*	*Xij	*	*	*	*	*	*	*	*	*	*	*	*	*	*	*
.	4C/	.	4e\	.	.	.	.	.	4C/	.	.	.	.	.	.	.	.	.	.	.	.	.	.	.	.	.	.	.
!	!LO:LB:g=original	!	!	!	!	!	!	!	!	!	!	!LO:LB:g=original	!	!	!	!	!	!	!	!	!	!	!	!	!	!	!	!
=130	=130	=130	=130	=130	=130	=130	=130	=130	=130	=130	=130	=130	=130	=130	=130	=130	=130	=130	=130	=130	=130	=130	=130	=130	=130	=130	=130	=130
1ryy	1D	.	1f	.	4cc\]	.	.	.	1D	A-	.	1f	A-	.	(2cc\	a-	.	.	.	.	1r	.	.	.	.	.	.	.
.	.	.	.	.	8b\L	.	.	.	.	.	.	.	.	.	.	.	.	.	.	.	.	.	.	.	.	.	.	.
.	.	.	.	.	8a\J	.	.	.	.	.	.	.	.	.	.	.	.	.	.	.	.	.	.	.	.	.	.	.
.	.	.	.	.	2b\	.	.	.	.	.	.	.	.	.	2b\)	.	.	.	.	.	.	.	.	.	.	.	.	.
!	!	!	!	!	!	!	!	!	!	!	!	!	!	!	!	!	!	!LO:LB:g=original	!	!	!	!	!	!	!	!	!	!
=131	=131	=131	=131	=131	=131	=131	=131	=131	=131	=131	=131	=131	=131	=131	=131	=131	=131	=131	=131	=131	=131	=131	=131	=131	=131	=131	=131	=131
1ryy	2C/	.	2e\	.	2cc\	.	4cc\	.	2C/	-men	.	2e\	-men	.	2cc\	-men	.	4cc\	a-	.	1r	.	.	.	.	.	.	.
.	.	.	.	.	.	.	4ee\	.	.	.	.	.	.	.	.	.	.	4ee\	.	.	.	.	.	.	.	.	.	.
.	2BB/	.	2g\	.	2dd\	.	4gg\	.	2BB/	A-	.	2r	.	.	2g\	a-	.	4gg\	.	.	.	.	.	.	.	.	.	.
.	.	.	.	.	.	.	4ffn\	.	.	.	.	.	.	.	.	.	.	4ff\	.	.	.	.	.	.	.	.	.	.
!	!	!	!LO:LB:g=original	!	!	!	!	!	!	!	!	!	!	!	!	!	!	!	!	!	!	!	!	!	!	!	!	!
=132	=132	=132	=132	=132	=132	=132	=132	=132	=132	=132	=132	=132	=132	=132	=132	=132	=132	=132	=132	=132	=132	=132	=132	=132	=132	=132	=132	=132
1ryy	2C/	.	2g\	.	1g	.	4ee\	.	2C/	.	.	00r	.	.	1g	.	.	4ee\	.	.	1r	.	00r	.	00r	.	00r	.
.	.	.	.	.	.	.	4dd\	.	.	.	.	.	.	.	.	.	.	4dd\	.	.	.	.	.	.	.	.	.	.
.	2E\	.	2c/	.	.	.	4cc\	.	2E\	.	.	.	.	.	.	.	.	4cc\	.	.	.	.	.	.	.	.	.	.
.	.	.	.	.	.	.	4b\	.	.	.	.	.	.	.	.	.	.	4b\	.	.	.	.	.	.	.	.	.	.
=133	=133	=133	=133	=133	=133	=133	=133	=133	=133	=133	=133	=133	=133	=133	=133	=133	=133	=133	=133	=133	=133	=133	=133	=133	=133	=133	=133	=133
1ryy	2F\	.	2c/	.	2c/	.	4a/	.	2F\	.	.	.	.	.	2a\	-men	.	2a\	-men	.	1r	.	.	.	.	.	.	.
.	.	.	.	.	.	.	4cc/	.	.	.	.	.	.	.	.	.	.	.	.	.	.	.	.	.	.	.	.	.
*	*	*	*	*	*	*	*	*	*custos:B	*	*	*	*	*	*	*	*	*	*	*	*	*	*	*	*	*	*	*
.	2A\	.	2c/	.	2f/	.	4ff\	.	2A\	.	.	.	.	.	2f\	a-	.	4ff\	a-	.	.	.	.	.	.	.	.	.
.	.	.	.	.	.	.	4ee\	.	.	.	.	.	.	.	.	.	.	4ee\	.	.	.	.	.	.	.	.	.	.
!	!	!	!	!	!	!	!	!	!LO:LB:g=original	!	!	!	!	!	!	!	!	!	!	!	!	!	!	!	!	!	!	!
=134	=134	=134	=134	=134	=134	=134	=134	=134	=134	=134	=134	=134	=134	=134	=134	=134	=134	=134	=134	=134	=134	=134	=134	=134	=134	=134	=134	=134
1ryy	2B\	.	2f\	.	1f	.	4dd\	.	2B\	.	.	.	.	.	1f	.	.	4dd\	.	.	1r	.	.	.	.	.	.	.
.	.	.	.	.	.	.	4cc\	.	.	.	.	.	.	.	.	.	.	4cc\	.	.	.	.	.	.	.	.	.	.
.	2D/	.	2B/	.	.	.	4b\	.	2D\	.	.	.	.	.	.	.	.	4b\	.	.	.	.	.	.	.	.	.	.
.	.	.	.	.	.	.	4a/	.	.	.	.	.	.	.	.	.	.	4a\	.	.	.	.	.	.	.	.	.	.
!	!	!	!	!	!LO:LB:g=original	!	!	!	!	!	!	!	!	!	!	!	!	!	!	!	!	!	!	!	!	!	!	!
=135	=135	=135	=135	=135	=135	=135	=135	=135	=135	=135	=135	=135	=135	=135	=135	=135	=135	=135	=135	=135	=135	=135	=135	=135	=135	=135	=135	=135
1ryy	2E\	.	2B/	.	2B/	.	4g/	.	2E\	.	.	.	.	.	2g\	-men	.	2g\	-men	.	1r	.	.	.	.	.	.	.
.	.	.	.	.	.	.	4b\	.	.	.	.	.	.	.	.	.	.	.	.	.	.	.	.	.	.	.	.	.
.	2G\	.	2B/	.	2e/	.	4ee\	.	2G\	.	.	.	.	.	2e\	a-	.	4ee\	a-	.	.	.	.	.	.	.	.	.
.	.	.	.	.	.	.	4dd\	.	.	.	.	.	.	.	.	.	.	4dd\	.	.	.	.	.	.	.	.	.	.
!	!	!	!	!	!	!	!LO:LB:g=original	!	!	!	!	!	!	!	!	!	!	!	!	!	!	!	!	!	!	!	!	!
=136	=136	=136	=136	=136	=136	=136	=136	=136	=136	=136	=136	=136	=136	=136	=136	=136	=136	=136	=136	=136	=136	=136	=136	=136	=136	=136	=136	=136
1ryy	2A\	.	2e\	.	1e	.	4cc\	.	2A\	.	.	00r	.	.	1e	.	.	4cc\	.	.	1r	.	00r	.	0r	.	0r	.
.	.	.	.	.	.	.	4b/	.	.	.	.	.	.	.	.	.	.	4b\	.	.	.	.	.	.	.	.	.	.
.	2c\	.	2A/	.	.	.	4a/	.	2C/	.	.	.	.	.	.	.	.	4a\	.	.	.	.	.	.	.	.	.	.
.	.	.	.	.	.	.	4g/	.	.	.	.	.	.	.	.	.	.	4g\	.	.	.	.	.	.	.	.	.	.
=137	=137	=137	=137	=137	=137	=137	=137	=137	=137	=137	=137	=137	=137	=137	=137	=137	=137	=137	=137	=137	=137	=137	=137	=137	=137	=137	=137	=137
1ryy	2d\	.	2A/	.	2A/	.	4f/	.	2D\	.	.	.	.	.	2f\	-men	.	2f/	-men	.	1r	.	.	.	.	.	.	.
.	.	.	.	.	.	.	4b/	.	.	.	.	.	.	.	.	.	.	.	.	.	.	.	.	.	.	.	.	.
.	2F\	.	2A/	.	2d/	.	4dd/	.	2F\	.	.	.	.	.	2d\	a-	.	4dd\	a-	.	.	.	.	.	.	.	.	.
.	.	.	.	.	.	.	4cc/	.	.	.	.	.	.	.	.	.	.	4cc\	.	.	.	.	.	.	.	.	.	.
=138	=138	=138	=138	=138	=138	=138	=138	=138	=138	=138	=138	=138	=138	=138	=138	=138	=138	=138	=138	=138	=138	=138	=138	=138	=138	=138	=138	=138
1ryy	2G\	.	1B	.	1d	.	4b/	.	2G\	.	.	.	.	.	1d	.	.	4b\	.	.	1r	.	.	.	1r	.	1r	.
.	.	.	.	.	.	.	4a/	.	.	.	.	.	.	.	.	.	.	4a\	.	.	.	.	.	.	.	.	.	.
.	2B\	.	.	.	.	.	4g/	.	2BB/	.	.	.	.	.	.	.	.	4g/	.	.	.	.	.	.	.	.	.	.
.	.	.	.	.	.	.	4f/	.	.	.	.	.	.	.	.	.	.	4f/	.	.	.	.	.	.	.	.	.	.
=139	=139	=139	=139	=139	=139	=139	=139	=139	=139	=139	=139	=139	=139	=139	=139	=139	=139	=139	=139	=139	=139	=139	=139	=139	=139	=139	=139	=139
1ryy	2c\	.	1c	.	4e/	.	2e/	.	2C/	.	.	.	.	.	4e\	.	.	2e/	-men	.	1r	.	.	.	2e/	.	2cc\	.
.	.	.	.	.	4c/	.	.	.	.	.	.	.	.	.	4c\	.	.	.	.	.	.	.	.	.	.	.	.	.
.	2E\	.	.	.	4a/	.	[2cc\	.	2E\	.	.	.	.	.	4a\	.	.	[2cc\	a-	.	.	.	.	.	2cc\	.	2ee\	.
.	.	.	.	.	4g/	.	.	.	.	.	.	.	.	.	4g\	.	.	.	.	.	.	.	.	.	.	.	.	.
=140	=140	=140	=140	=140	=140	=140	=140	=140	=140	=140	=140	=140	=140	=140	=140	=140	=140	=140	=140	=140	=140	=140	=140	=140	=140	=140	=140	=140
1ryy	1A	.	1d	.	1f#X	.	4cc\]	.	1A	.	.	1d	A-	.	1f#X	.	.	4cc\]	.	.	4dd\	.	4dd\	.	1cc	.	1ff#X	.
.	.	.	.	.	.	.	4a\	.	.	.	.	.	.	.	.	.	.	4a\	.	.	8dd\L	.	8dd\L	.	.	.	.	.
.	.	.	.	.	.	.	.	.	.	.	.	.	.	.	.	.	.	.	.	.	8dd\J	.	8dd\J	.	.	.	.	.
.	.	.	.	.	.	.	4dd\	.	.	.	.	.	.	.	.	.	.	4dd\	.	.	4dd\	.	4dd\	.	.	.	.	.
*	*	*	*	*	*	*	*	*	*	*	*	*	*	*	*	*	*	*custos:b	*	*	*	*	*	*	*	*	*	*
.	.	.	.	.	.	.	4cc\	.	.	.	.	.	.	.	.	.	.	4cc\	.	.	4dd\	.	4dd\	.	.	.	.	.
!	!	!	!	!	!	!	!	!	!	!	!	!	!	!	!	!	!	!LO:LB:g=original	!	!	!	!	!	!	!	!	!	!
=141	=141	=141	=141	=141	=141	=141	=141	=141	=141	=141	=141	=141	=141	=141	=141	=141	=141	=141	=141	=141	=141	=141	=141	=141	=141	=141	=141	=141
!	!	!	!	!	!	!	!	!	!	!	!	!	!	!	!	!	!	!	!	!	!LO:TX:t=P:problem=brak jednego taktu	!	!	!	!	!	!	!
1ryy	1G	.	1d	.	4g/	.	2b\	.	2G\	-men	.	4d\	.	.	4g\	.	.	2b\	-men	.	1ryy	.	2dd\	.	2b\	.	2gg\	.
.	.	.	.	.	4d/	.	.	.	.	.	.	4B\	.	.	4d\	.	.	.	.	.	.	.	.	.	.	.	.	.
.	.	.	.	.	4g/	.	2r	.	2r	.	.	4c\	.	.	4g\	.	.	2r	.	.	.	.	2r	.	2r	.	2r	.
.	.	.	.	.	4fn/	.	.	.	.	.	.	4d\	.	.	4fn\	.	.	.	.	.	.	.	.	.	.	.	.	.
!	!	!	!	!	!	!	!	!	!	!	!	!	!	!	!LO:LB:g=original	!	!	!	!	!	!	!	!	!	!	!	!	!
=142	=142	=142	=142	=142	=142	=142	=142	=142	=142	=142	=142	=142	=142	=142	=142	=142	=142	=142	=142	=142	=142	=142	=142	=142	=142	=142	=142	=142
1ryy	[1GG	.	2c\	.	4e/	.	1cc	.	1G	In	.	4e\	.	.	2e\	-men	.	(1cc	In	.	2g/	.	2g/	.	00r	.	00r	.
.	.	.	.	.	4d/	.	.	.	.	.	.	4d\	.	.	.	.	.	.	.	.	.	.	.	.	.	.	.	.
.	.	.	2g\	.	4e/	.	.	.	.	.	.	4e\	.	.	2r	.	.	.	.	.	2r	.	2r	.	.	.	.	.
.	.	.	.	.	4c/	.	.	.	.	.	.	4c\	.	.	.	.	.	.	.	.	.	.	.	.	.	.	.	.
=143	=143	=143	=143	=143	=143	=143	=143	=143	=143	=143	=143	=143	=143	=143	=143	=143	=143	=143	=143	=143	=143	=143	=143	=143	=143	=143	=143	=143
1ryy	1GG_	.	1g	.	4B/	.	1dd	.	2.G\	glo-	.	4B\	.	.	1B	In	.	1dd)	.	.	2g/	.	2g/	.	.	.	.	.
.	.	.	.	.	4A/	.	.	.	.	.	.	4A\	.	.	.	.	.	.	.	.	.	.	.	.	.	.	.	.
.	.	.	.	.	4B/	.	.	.	.	.	.	4B\	.	.	.	.	.	.	.	.	2r	.	2r	.	.	.	.	.
.	.	.	.	.	4G/	.	.	.	4G\	-ri-	.	4G/	.	.	.	.	.	.	.	.	.	.	.	.	.	.	.	.
!	!	!	!	!	!	!	!	!	!	!	!	!	!	!	!	!	!	!	!	!	!	!	!LO:LB:g=original	!	!	!	!	!
=144	=144	=144	=144	=144	=144	=144	=144	=144	=144	=144	=144	=144	=144	=144	=144	=144	=144	=144	=144	=144	=144	=144	=144	=144	=144	=144	=144	=144
1ryy	1GG_	.	4e\	.	4c/	.	2.ee\	.	1G	-a	.	2c\	-men	.	(4c\	glo-	.	2.ee\	glo-	.	2g/	.	2g/	.	.	.	.	.
.	.	.	4f\	.	4d/	.	.	.	.	.	.	.	.	.	4d\	.	.	.	.	.	.	.	.	.	.	.	.	.
.	.	.	4g\	.	4e/	.	.	.	.	.	.	2r	.	.	4e\)	-ri-	.	.	.	.	2r	.	2r	.	.	.	.	.
*	*	*	*custos:d	*	*	*	*	*	*	*	*	*	*	*	*	*	*	*	*	*	*	*	*	*	*	*	*	*
.	.	.	4a\	.	4f/	.	4ee\	.	.	.	.	.	.	.	4f\	-a	.	4ee\	-ri-	.	.	.	.	.	.	.	.	.
!	!LO:LB:g=original	!	!LO:LB:g=original	!	!	!	!	!	!	!	!	!	!	!	!	!	!	!	!	!	!	!	!	!	!	!	!	!
=145	=145	=145	=145	=145	=145	=145	=145	=145	=145	=145	=145	=145	=145	=145	=145	=145	=145	=145	=145	=145	=145	=145	=145	=145	=145	=145	=145	=145
1ryy	1C 1GG_	.	1d	.	4g/	.	1b	.	1G	De-	.	2r	.	.	(4g\	De-	.	1b	-a	.	2g/	.	2g/	.	.	.	.	.
.	.	.	.	.	4a/	.	.	.	.	.	.	.	.	.	4a\)	.	.	.	.	.	.	.	.	.	.	.	.	.
.	.	.	.	.	4g/	.	.	.	.	.	.	2d\	A-	.	(4g\	-i	.	.	.	.	2r	.	2r	.	.	.	.	.
.	.	.	.	.	4f/	.	.	.	.	.	.	.	.	.	4f\)	.	.	.	.	.	.	.	.	.	.	.	.	.
=146	=146	=146	=146	=146	=146	=146	=146	=146	=146	=146	=146	=146	=146	=146	=146	=146	=146	=146	=146	=146	=146	=146	=146	=146	=146	=146	=146	=146
1ryy	1GG_	.	2e\	.	2e/	.	4cc\	.	1G	-i	.	1e	.	.	2e\	pat-	.	(4cc\	De-	.	2g/	.	2g/	.	00r	.	00r	.
.	.	.	.	.	.	.	4dd\	.	.	.	.	.	.	.	.	.	.	4dd\)	.	.	.	.	.	.	.	.	.	.
.	.	.	2r	.	4cc\	.	4ee\	.	.	.	.	.	.	.	4cc\	.	.	(4ee\	-i	.	2r	.	2r	.	.	.	.	.
.	.	.	.	.	4b\	.	4ff\	.	.	.	.	.	.	.	4b\	.	.	4ff\)	.	.	.	.	.	.	.	.	.	.
=147	=147	=147	=147	=147	=147	=147	=147	=147	=147	=147	=147	=147	=147	=147	=147	=147	=147	=147	=147	=147	=147	=147	=147	=147	=147	=147	=147	=147
1ryy	1GG_	.	[1G	.	[1a	.	4gg\	.	1G	Pa-	.	1c	.	.	1a	.	.	(4gg\	pa-	.	2g/	.	2g/	.	.	.	.	.
.	.	.	.	.	.	.	4ee\	.	.	.	.	.	.	.	.	.	.	4ee\)	.	.	.	.	.	.	.	.	.	.
.	.	.	.	.	.	.	4aa\	.	.	.	.	.	.	.	.	.	.	4aa\	.	.	2r	.	2r	.	.	.	.	.
.	.	.	.	.	.	.	4gg\	.	.	.	.	.	.	.	.	.	.	4gg\	.	.	.	.	.	.	.	.	.	.
!	!	!	!	!	!	!	!	!	!LO:LB:g=original	!	!	!	!	!	!	!	!	!	!	!	!	!	!	!	!	!	!	!
=148	=148	=148	=148	=148	=148	=148	=148	=148	=148	=148	=148	=148	=148	=148	=148	=148	=148	=148	=148	=148	=148	=148	=148	=148	=148	=148	=148	=148
1ryy	1GG_	.	1G]	.	4a/]	.	[1ff	.	1G	-triſ	.	1d	.	.	4a\	.	.	1ff	.	.	2g/	.	2g/	.	.	.	.	.
.	.	.	.	.	4f/	.	.	.	.	.	.	.	.	.	4f\	.	.	.	.	.	.	.	.	.	.	.	.	.
.	.	.	.	.	4b/	.	.	.	.	.	.	.	.	.	4b\	.	.	.	.	.	2r	.	2r	.	.	.	.	.
.	.	.	.	.	4g/	.	.	.	.	.	.	.	.	.	4a\	.	.	.	.	.	.	.	.	.	.	.	.	.
=149	=149	=149	=149	=149	=149	=149	=149	=149	=149	=149	=149	=149	=149	=149	=149	=149	=149	=149	=149	=149	=149	=149	=149	=149	=149	=149	=149	=149
1ryy	1GG_	.	1G	.	1g	.	4ff\]	.	1G	A-	.	1B	.	.	1g	.	.	4ff\	.	.	2g/	.	2g/	.	.	.	.	.
.	.	.	.	.	.	.	4dd\	.	.	.	.	.	.	.	.	.	.	4dd\	.	.	.	.	.	.	.	.	.	.
.	.	.	.	.	.	.	4gg\	.	.	.	.	.	.	.	.	.	.	4gg\	.	.	2r	.	2r	.	.	.	.	.
.	.	.	.	.	.	.	4ff\	.	.	.	.	.	.	.	.	.	.	4ff\	.	.	.	.	.	.	.	.	.	.
!	!	!	!	!	!LO:LB:g=original	!	!LO:LB:g=original	!	!	!	!	!LO:LB:g=original	!	!	!	!	!	!	!	!	!	!	!	!	!	!	!	!
=150	=150	=150	=150	=150	=150	=150	=150	=150	=150	=150	=150	=150	=150	=150	=150	=150	=150	=150	=150	=150	=150	=150	=150	=150	=150	=150	=150	=150
1ryy	1GG_	.	1G	.	4g/	.	[1ee	.	1G	.	.	1c	.	.	4g\	.	.	1ee	.	.	2g/	.	2g/	.	0r	.	0r	.
.	.	.	.	.	4e/	.	.	.	.	.	.	.	.	.	4e\	.	.	.	.	.	.	.	.	.	.	.	.	.
.	.	.	.	.	4a/	.	.	.	.	.	.	.	.	.	4a\	.	.	.	.	.	2r	.	2r	.	.	.	.	.
.	.	.	.	.	4g/	.	.	.	.	.	.	.	.	.	4g\	.	.	.	.	.	.	.	.	.	.	.	.	.
=151	=151	=151	=151	=151	=151	=151	=151	=151	=151	=151	=151	=151	=151	=151	=151	=151	=151	=151	=151	=151	=151	=151	=151	=151	=151	=151	=151	=151
1ryy	1GG_	.	1G	.	1f	.	4ee\]	.	1G	.	.	1A	.	.	1f	.	.	4ee\	.	.	2g/	.	2g/	.	.	.	.	.
.	.	.	.	.	.	.	4cc\	.	.	.	.	.	.	.	.	.	.	4cc\	.	.	.	.	.	.	.	.	.	.
.	.	.	.	.	.	.	4ff\	.	.	.	.	.	.	.	.	.	.	4ff\	.	.	2r	.	2r	.	.	.	.	.
.	.	.	.	.	.	.	4ee\	.	.	.	.	.	.	.	.	.	.	4ee\	.	.	.	.	.	.	.	.	.	.
=152	=152	=152	=152	=152	=152	=152	=152	=152	=152	=152	=152	=152	=152	=152	=152	=152	=152	=152	=152	=152	=152	=152	=152	=152	=152	=152	=152	=152
*	*	*	*	*	*	*	*	*	*	*	*	*	*	*	*	*	*	*custos:dd	*	*	*	*	*	*	*	*	*	*
1ryy	1GG_	.	1g	.	4f/	.	[1dd	.	1G	.	.	1B	.	.	4f\	.	.	1dd	.	.	2g/	.	2g/	.	1r	.	1r	.
.	.	.	.	.	4d/	.	.	.	.	.	.	.	.	.	4d\	.	.	.	.	.	.	.	.	.	.	.	.	.
.	.	.	.	.	4g/	.	.	.	.	.	.	.	.	.	4g\	.	.	.	.	.	2r	.	2r	.	.	.	.	.
.	.	.	.	.	4f/	.	.	.	.	.	.	.	.	.	4f\	.	.	.	.	.	.	.	.	.	.	.	.	.
!	!	!	!	!	!	!	!	!	!	!	!	!	!	!	!	!	!	!LO:LB:g=original	!	!	!	!	!	!	!	!	!	!
=153	=153	=153	=153	=153	=153	=153	=153	=153	=153	=153	=153	=153	=153	=153	=153	=153	=153	=153	=153	=153	=153	=153	=153	=153	=153	=153	=153	=153
1ryy	1GG_	.	1g	.	1e	.	2dd\]	.	1G	.	.	2c\	.	.	1e	.	.	2dd\	.	.	2g/	.	2g/	.	2r	.	2r	.
.	.	.	.	.	.	.	[2cc\	.	.	.	.	2G/	-men	.	.	.	.	2cc\	-tris	.	2r	.	2r	.	2cc\	.	2ee\	.
!	!	!	!	!	!	!	!	!	!	!	!	!	!	!	!	!	!	!	!	!	!LO:LB:g=original	!	!	!	!	!	!	!
=154	=154	=154	=154	=154	=154	=154	=154	=154	=154	=154	=154	=154	=154	=154	=154	=154	=154	=154	=154	=154	=154	=154	=154	=154	=154	=154	=154	=154
1ryy	1GG_	.	2g\	.	1d	.	2cc\]	.	1G	.	.	1G	A-	.	1d	.	.	(2cc\	a-	.	2g/	.	2g/	.	2cc\	.	1dd	.
.	.	.	2r	.	.	.	2b\	.	.	.	.	.	.	.	.	.	.	2b\)	.	.	2g/	.	2dd\	.	2b\	.	.	.
!	!	!	!	!	!	!	!	!	!	!	!	!	!	!	!LO:LB:g=original	!	!	!	!	!	!	!	!	!	!	!	!	!
=155	=155	=155	=155	=155	=155	=155	=155	=155	=155	=155	=155	=155	=155	=155	=155	=155	=155	=155	=155	=155	=155	=155	=155	=155	=155	=155	=155	=155
!LO:TX:a:t=P:problem=nadmiarowy takt w vlne	!LO:TX:a:t=P:problem=nadmiarowy takt	!	!LO:TX:a:t=P:problem=nadmiarowy takt w vlne	!	!LO:TX:a:t=P:problem=nadmiarowy takt w vlne	!	!LO:TX:a:t=P:problem=nadmiarowy takt w vlne	!	!LO:TX:a:t=P:problem=nadmiarowy takt w vlne	!	!	!LO:TX:a:t=P:problem=nadmiarowy takt w vlne	!	!	!LO:TX:a:t=P:problem=nadmiarowy takt w vlne	!	!	!LO:TX:a:t=P:problem=nadmiarowy takt w vlne	!	!	!LO:TX:a:t=P:problem=nadmiarowy takt w vlne	!	!LO:TX:a:t=P:problem=nadmiarowy takt w vlne	!	!LO:TX:a:t=P:problem=nadmiarowy takt w vlne	!	!LO:TX:a:t=P:problem=nadmiarowy takt w vlne	!
1ryy	1GG]	.	1ryy	.	1ryy	.	1ryy	.	1ryy	.	.	1ryy	.	.	1ryy	.	.	1ryy	.	.	1ryy	.	1ryy	.	1ryy	.	1ryy	.
=156	=156	=156	=156	=156	=156	=156	=156	=156	=156	=156	=156	=156	=156	=156	=156	=156	=156	=156	=156	=156	=156	=156	=156	=156	=156	=156	=156	=156
!	!	!	!LO:TX:a:t=P:problem=brak taktu	!	!	!	!	!LO:DY:a:t=pia&colon;	!	!	!	!	!	!	!	!	!	!	!	!	!	!	!	!	!	!	!	!
1ryy	2C/	.	1ryy	.	4e/	.	1cc	p	2C/	-men	.	2G/	-men	.	2e\	-men	.	2cc\	-men	.	2e/	.	2cc\	.	2cc\	.	2ee\	.
!	!	!	!	!	!	!LO:DY:a:t=pia&colon;	!	!	!	!	!	!	!	!	!	!	!	!	!	!	!	!	!	!	!	!	!	!
.	.	.	.	.	4e/	p	.	.	.	.	.	.	.	.	.	.	.	.	.	.	.	.	.	.	.	.	.	.
*	*	*	*	*	*	*	*	*	*	*	*	*	*	*	*	*	*	*	*	*	*	*	*	*	*custos:cc	*	*	*
.	2r	.	.	.	4d/	.	.	.	2r	.	.	2r	.	.	2r	.	.	2r	.	.	2r	.	2r	.	2r	.	2r	.
.	.	.	.	.	4c/	.	.	.	.	.	.	.	.	.	.	.	.	.	.	.	.	.	.	.	.	.	.	.
!	!	!	!	!	!	!	!	!	!	!	!	!	!	!	!	!	!	!	!	!	!	!	!	!	!LO:LB:g=original	!	!	!
=157	=157	=157	=157	=157	=157	=157	=157	=157	=157	=157	=157	=157	=157	=157	=157	=157	=157	=157	=157	=157	=157	=157	=157	=157	=157	=157	=157	=157
!	!LO:TX:a:t=6	!	!LO:TX:a:t=6	!	!	!	!	!	!	!	!	!	!	!	!LO:TX:a:t=6	!	!	!LO:TX:a:t=6	!	!	!LO:TX:a:t=6	!	!LO:TX:a:t=6	!	!	!	!LO:TX:a:t=6	!
1ryy	00r	.	00r	.	4B/	.	1dd	.	00r	.	.	00r	.	.	00r	.	.	00r	.	.	00r	.	00r	.	00r	.	00r	.
.	.	.	.	.	4G/	.	.	.	.	.	.	.	.	.	.	.	.	.	.	.	.	.	.	.	.	.	.	.
.	.	.	.	.	4A/	.	.	.	.	.	.	.	.	.	.	.	.	.	.	.	.	.	.	.	.	.	.	.
.	.	.	.	.	4B/	.	.	.	.	.	.	.	.	.	.	.	.	.	.	.	.	.	.	.	.	.	.	.
=158	=158	=158	=158	=158	=158	=158	=158	=158	=158	=158	=158	=158	=158	=158	=158	=158	=158	=158	=158	=158	=158	=158	=158	=158	=158	=158	=158	=158
1ryy	.	.	.	.	4c/	.	2.ee\	.	.	.	.	.	.	.	.	.	.	.	.	.	.	.	.	.	.	.	.	.
.	.	.	.	.	4g/	.	.	.	.	.	.	.	.	.	.	.	.	.	.	.	.	.	.	.	.	.	.	.
.	.	.	.	.	4cc\	.	.	.	.	.	.	.	.	.	.	.	.	.	.	.	.	.	.	.	.	.	.	.
.	.	.	.	.	4b\	.	4gg\	.	.	.	.	.	.	.	.	.	.	.	.	.	.	.	.	.	.	.	.	.
=159	=159	=159	=159	=159	=159	=159	=159	=159	=159	=159	=159	=159	=159	=159	=159	=159	=159	=159	=159	=159	=159	=159	=159	=159	=159	=159	=159	=159
1ryy	.	.	.	.	4a/	.	4ff\	.	.	.	.	.	.	.	.	.	.	.	.	.	.	.	.	.	.	.	.	.
.	.	.	.	.	4g/	.	4ee\	.	.	.	.	.	.	.	.	.	.	.	.	.	.	.	.	.	.	.	.	.
.	.	.	.	.	4f/	.	4dd\	.	.	.	.	.	.	.	.	.	.	.	.	.	.	.	.	.	.	.	.	.
.	.	.	.	.	4f#X/	.	4cc\	.	.	.	.	.	.	.	.	.	.	.	.	.	.	.	.	.	.	.	.	.
=160	=160	=160	=160	=160	=160	=160	=160	=160	=160	=160	=160	=160	=160	=160	=160	=160	=160	=160	=160	=160	=160	=160	=160	=160	=160	=160	=160	=160
1ryy	.	.	.	.	4g/	.	2b\	.	.	.	.	.	.	.	.	.	.	.	.	.	.	.	.	.	.	.	.	.
.	.	.	.	.	4g/	.	.	.	.	.	.	.	.	.	.	.	.	.	.	.	.	.	.	.	.	.	.	.
.	.	.	.	.	4fn/	.	4r	.	.	.	.	.	.	.	.	.	.	.	.	.	.	.	.	.	.	.	.	.
.	.	.	.	.	4e/	.	4gg\	.	.	.	.	.	.	.	.	.	.	.	.	.	.	.	.	.	.	.	.	.
=161	=161	=161	=161	=161	=161	=161	=161	=161	=161	=161	=161	=161	=161	=161	=161	=161	=161	=161	=161	=161	=161	=161	=161	=161	=161	=161	=161	=161
1ryy	0r	.	0r	.	4d/	.	4ff\	.	0r	.	.	0r	.	.	0r	.	.	0r	.	.	0r	.	0r	.	0r	.	0r	.
.	.	.	.	.	4c/	.	4ee\	.	.	.	.	.	.	.	.	.	.	.	.	.	.	.	.	.	.	.	.	.
.	.	.	.	.	4B/	.	4dd\	.	.	.	.	.	.	.	.	.	.	.	.	.	.	.	.	.	.	.	.	.
.	.	.	.	.	4A/	.	4cc\	.	.	.	.	.	.	.	.	.	.	.	.	.	.	.	.	.	.	.	.	.
=162	=162	=162	=162	=162	=162	=162	=162	=162	=162	=162	=162	=162	=162	=162	=162	=162	=162	=162	=162	=162	=162	=162	=162	=162	=162	=162	=162	=162
1ryy	.	.	.	.	4G/	.	1b	.	.	.	.	.	.	.	.	.	.	.	.	.	.	.	.	.	.	.	.	.
.	.	.	.	.	4d/	.	.	.	.	.	.	.	.	.	.	.	.	.	.	.	.	.	.	.	.	.	.	.
.	.	.	.	.	4g/	.	.	.	.	.	.	.	.	.	.	.	.	.	.	.	.	.	.	.	.	.	.	.
.	.	.	.	.	4f/	.	.	.	.	.	.	.	.	.	.	.	.	.	.	.	.	.	.	.	.	.	.	.
=163	=163	=163	=163	=163	=163	=163	=163	=163	=163	=163	=163	=163	=163	=163	=163	=163	=163	=163	=163	=163	=163	=163	=163	=163	=163	=163	=163	=163
*	*	*	*	*	*^	*	*	*	*	*	*	*	*	*	*	*	*	*	*	*	*	*	*	*	*	*	*	*
!	!	!LO:DY:a:t=fortiſ.	!LO:TX:t=P:problem=brak jednego taktu	!LO:DY:a:t=for&colon;	!	!	!LO:DY:a:t=fortiſ&colon;	!	!LO:DY:a:rj:t=fortiſ&colon;	!	!	!	!	!	!LO:DY:a:t=fortiſ.	!	!	!LO:DY:a:t=fortiſ.	!	!	!LO:DY:a:rj:t=fortiſ.	!	!	!	!	!	!	!	!
1ryy	4C/	ff	4g\	f	4e/	4e\yy	ff	4cc\	ff	1C	In	.	1c	In	ff	1g	In	ff	1ee	In	ff	2cc\	.	2ee\	.	1ee	.	1ccc	.
.	4C/	.	4g\	.	4ee/	4cc\	.	8dd\L	.	.	.	.	.	.	.	.	.	.	.	.	.	.	.	.	.	.	.	.	.
.	.	.	.	.	.	.	.	8ee\J	.	.	.	.	.	.	.	.	.	.	.	.	.	.	.	.	.	.	.	.	.
.	4C/	.	4g\	.	4ee/	4cc\	.	8ff\L	.	.	.	.	.	.	.	.	.	.	.	.	.	4cc\	.	2ee\	.	.	.	.	.
.	.	.	.	.	.	.	.	8gg\	.	.	.	.	.	.	.	.	.	.	.	.	.	.	.	.	.	.	.	.	.
.	4C/	.	4g\	.	4ee/	4cc\	.	8aa\	.	.	.	.	.	.	.	.	.	.	.	.	.	4cc\	.	.	.	.	.	.	.
*	*	*	*	*	*	*	*	*	*	*	*	*	*	*	*	*	*	*	*	*	*	*	*	*	*	*	*	*custos:ccc	*
.	.	.	.	.	.	.	.	8bb\J	.	.	.	.	.	.	.	.	.	.	.	.	.	.	.	.	.	.	.	.	.
!	!	!	!	!	!LO:LB:g=original	!LO:LB:g=original	!	!LO:LB:g=original	!	!	!	!	!	!	!	!	!	!	!	!	!	!	!	!	!	!	!	!LO:LB:g=original	!
=164	=164	=164	=164	=164	=164	=164	=164	=164	=164	=164	=164	=164	=164	=164	=164	=164	=164	=164	=164	=164	=164	=164	=164	=164	=164	=164	=164	=164	=164
1ryy	4E\	.	4e\	.	8ee/L	8cc\L	.	4ccc\	.	2.E\	glo-	.	2.c\	glo-	.	2.g\	glo-	.	2ee\	glo-	.	2cc\	.	2ee\	.	1cc	.	2ccc\	.
.	.	.	.	.	8ee/	8cc\	.	.	.	.	.	.	.	.	.	.	.	.	.	.	.	.	.	.	.	.	.	.	.
.	4E\	.	4e\	.	8ee/	8cc\	.	4cc\	.	.	.	.	.	.	.	.	.	.	.	.	.	.	.	.	.	.	.	.	.
.	.	.	.	.	8ee/J	8cc\J	.	.	.	.	.	.	.	.	.	.	.	.	.	.	.	.	.	.	.	.	.	.	.
.	4E\	.	4e\	.	8ee/L	8cc\L	.	4cc\	.	.	.	.	.	.	.	.	.	.	4ee\	-ri-	.	2cc\	.	4ee\	.	.	.	2ccc\	.
.	.	.	.	.	8ee/	8cc\	.	.	.	.	.	.	.	.	.	.	.	.	.	.	.	.	.	.	.	.	.	.	.
.	4E\	.	4e\	.	8ee/	8cc\	.	4cc\	.	4E\	-ri-	.	4c\	-ri-	.	4g\	-ri-	.	4ee\	-a	.	.	.	4ee\	.	.	.	.	.
.	.	.	.	.	8ee/J	8cc\J	.	.	.	.	.	.	.	.	.	.	.	.	.	.	.	.	.	.	.	.	.	.	.
!	!LO:LB:g=original	!	!	!	!	!	!	!	!	!	!	!	!	!	!	!	!	!	!	!	!	!	!	!LO:LB:g=original	!	!	!	!	!
=165	=165	=165	=165	=165	=165	=165	=165	=165	=165	=165	=165	=165	=165	=165	=165	=165	=165	=165	=165	=165	=165	=165	=165	=165	=165	=165	=165	=165	=165
1ryy	4F\	.	4f\	.	8ee/L	8cc\L	.	4cc\	.	1F	-a	.	1c	-a	.	1a	-a	.	2ee\	De-	.	4cc\	.	4ee\	.	2ee\	.	1ccc	.
.	.	.	.	.	8ee/	8cc\	.	.	.	.	.	.	.	.	.	.	.	.	.	.	.	.	.	.	.	.	.	.	.
.	4F\	.	4f\	.	8ee/	8cc\	.	8dd\L	.	.	.	.	.	.	.	.	.	.	.	.	.	8cc\L	.	8ee\L	.	.	.	.	.
.	.	.	.	.	8ee/J	8cc\J	.	8ee\J	.	.	.	.	.	.	.	.	.	.	.	.	.	8cc\J	.	8ee\J	.	.	.	.	.
.	4F\	.	4f\	.	8ee/L	8cc\L	.	8ff\L	.	.	.	.	.	.	.	.	.	.	2ee\	-i	.	4cc\	.	4ee\	.	2ee\	.	.	.
.	.	.	.	.	8ee/	8cc\	.	8gg\	.	.	.	.	.	.	.	.	.	.	.	.	.	.	.	.	.	.	.	.	.
!	!	!	!LO:LB:g=original	!	!	!	!	!	!	!	!	!	!	!	!	!	!	!	!	!	!	!	!	!	!	!	!	!	!
.	4F\	.	4f\	.	8ee/	8cc\	.	8aa\	.	.	.	.	.	.	.	.	.	.	.	.	.	4cc\	.	4ee\	.	.	.	.	.
.	.	.	.	.	8ee/J	8cc\J	.	8bb\J	.	.	.	.	.	.	.	.	.	.	.	.	.	.	.	.	.	.	.	.	.
=166	=166	=166	=166	=166	=166	=166	=166	=166	=166	=166	=166	=166	=166	=166	=166	=166	=166	=166	=166	=166	=166	=166	=166	=166	=166	=166	=166	=166	=166
1ryy	4G\	.	4g\	.	8ee/L	8cc\L	.	4ccc\	.	2G\	De-	.	2c\	De-	.	2g\	De-	.	2ee\	pa-	.	2cc\	.	1ee	.	2ee\	.	2ccc\	.
.	.	.	.	.	8ee/	8cc\	.	.	.	.	.	.	.	.	.	.	.	.	.	.	.	.	.	.	.	.	.	.	.
.	4G\	.	4g\	.	8ee/	8cc\	.	4cc\	.	.	.	.	.	.	.	.	.	.	.	.	.	.	.	.	.	.	.	.	.
.	.	.	.	.	8ee/J	8cc\J	.	.	.	.	.	.	.	.	.	.	.	.	.	.	.	.	.	.	.	.	.	.	.
.	4G\	.	4g\	.	8ee/L	8cc\L	.	4cc\	.	2A\	-i	.	2c\	-i	.	2g\	-i	.	2ee\	-tris	.	2cc\	.	.	.	2ee\	.	2ccc\	.
.	.	.	.	.	8ee/	8cc\	.	.	.	.	.	.	.	.	.	.	.	.	.	.	.	.	.	.	.	.	.	.	.
.	4G\	.	4g\	.	8ee/	8cc\	.	4cc\	.	.	.	.	.	.	.	.	.	.	.	.	.	.	.	.	.	.	.	.	.
.	.	.	.	.	8ee/J	8cc\J	.	.	.	.	.	.	.	.	.	.	.	.	.	.	.	.	.	.	.	.	.	.	.
=167	=167	=167	=167	=167	=167	=167	=167	=167	=167	=167	=167	=167	=167	=167	=167	=167	=167	=167	=167	=167	=167	=167	=167	=167	=167	=167	=167	=167	=167
1ryy	4A\	.	4a\	.	8ee/L	8cc\L	.	4cc\	.	1A	Pa-	.	1c	Pa-	.	1a	pa-	.	2ee\	De-	.	2cc\	.	2ee\	.	2ee\	.	1ccc	.
.	.	.	.	.	8ee/	8cc\	.	.	.	.	.	.	.	.	.	.	.	.	.	.	.	.	.	.	.	.	.	.	.
.	4A\	.	4a\	.	8ee/	8cc\	.	8dd\L	.	.	.	.	.	.	.	.	.	.	.	.	.	.	.	.	.	.	.	.	.
.	.	.	.	.	8ee/J	8cc\J	.	8ee\J	.	.	.	.	.	.	.	.	.	.	.	.	.	.	.	.	.	.	.	.	.
.	4A\	.	4a\	.	8ee/L	8cc\L	.	8ff\L	.	.	.	.	.	.	.	.	.	.	2ee\	-i	.	2cc\	.	2ee\	.	2ee\	.	.	.
.	.	.	.	.	8ee/	8cc\	.	8gg\	.	.	.	.	.	.	.	.	.	.	.	.	.	.	.	.	.	.	.	.	.
.	4A\	.	4a\	.	8ee/	8cc\	.	8aa\	.	.	.	.	.	.	.	.	.	.	.	.	.	.	.	.	.	.	.	.	.
.	.	.	.	.	8ee/J	8cc\J	.	8bb\J	.	.	.	.	.	.	.	.	.	.	.	.	.	.	.	.	.	.	.	.	.
=168	=168	=168	=168	=168	=168	=168	=168	=168	=168	=168	=168	=168	=168	=168	=168	=168	=168	=168	=168	=168	=168	=168	=168	=168	=168	=168	=168	=168	=168
*	*	*	*	*	*	*	*	*	*	*custos:F	*	*	*	*	*	*	*	*	*	*	*	*	*	*	*	*	*	*	*
1ryy	4E\	.	4g\	.	8ee/L	8cc\L	.	4ccc\	.	1E	-triſ	.	1c	-triſ	.	1g	-tris	.	2ee\	pa-	.	2cc\	.	2ee\	.	2cc\	.	2ccc\	.
.	.	.	.	.	8ee/	8cc\	.	.	.	.	.	.	.	.	.	.	.	.	.	.	.	.	.	.	.	.	.	.	.
.	4E\	.	4g\	.	8ee/	8cc\	.	4cc\	.	.	.	.	.	.	.	.	.	.	.	.	.	.	.	.	.	.	.	.	.
.	.	.	.	.	8ee/J	8cc\J	.	.	.	.	.	.	.	.	.	.	.	.	.	.	.	.	.	.	.	.	.	.	.
.	4E\	.	4g\	.	8ee/L	8cc\L	.	4cc\	.	.	.	.	.	.	.	.	.	.	2ee\	-tris	.	4cc\	.	4ee\	.	2cc\	.	2ccc\	.
.	.	.	.	.	8ee/	8cc\	.	.	.	.	.	.	.	.	.	.	.	.	.	.	.	.	.	.	.	.	.	.	.
.	4E\	.	4g\	.	8ee/	8cc\	.	4cc\	.	.	.	.	.	.	.	.	.	.	.	.	.	4cc\	.	4ee\	.	.	.	.	.
.	.	.	.	.	8ee/J	8cc\J	.	.	.	.	.	.	.	.	.	.	.	.	.	.	.	.	.	.	.	.	.	.	.
*	*	*	*	*	*v	*v	*	*	*	*	*	*	*	*	*	*	*	*	*	*	*	*	*	*	*	*	*	*	*
!	!	!	!	!	!	!	!	!	!LO:LB:g=original	!	!	!LO:LB:g=original	!	!	!	!	!	!	!	!	!	!	!	!	!	!	!	!
=169	=169	=169	=169	=169	=169	=169	=169	=169	=169	=169	=169	=169	=169	=169	=169	=169	=169	=169	=169	=169	=169	=169	=169	=169	=169	=169	=169	=169
*	*	*	*	*	*	*	*	*	*	*	*	*	*	*	*	*	*	*custos:ee	*	*	*	*	*	*	*	*	*	*
1ryy	2F\	.	4a\	.	4dd\	.	4dd\	.	2F\	A-	.	2c\	A-	.	(2a\	a-	.	1dd	a-	.	2cc\	.	2dd\	.	1dd	.	2ccc\	.
.	.	.	4a\	.	4ccc\	.	4ccc\	.	.	.	.	.	.	.	.	.	.	.	.	.	.	.	.	.	.	.	.	.
.	2G\	.	4g\	.	4dd\	.	4dd\	.	2G\	.	.	2B\	.	.	2g\)	.	.	.	.	.	2g/	.	2dd\	.	.	.	2bb\	.
.	.	.	4g\	.	4bb\	.	4bb\	.	.	.	.	.	.	.	.	.	.	.	.	.	.	.	.	.	.	.	.	.
!	!	!	!	!	!	!	!	!	!	!	!	!	!	!	!	!	!	!LO:LB:g=original	!	!	!	!	!	!	!	!	!	!
=170	=170	=170	=170	=170	=170	=170	=170	=170	=170	=170	=170	=170	=170	=170	=170	=170	=170	=170	=170	=170	=170	=170	=170	=170	=170	=170	=170	=170
1ryy	2C/	.	2g\	.	4ee\	.	4ee\	.	2C/	-men	.	2c\	-men	.	2g\	-men	.	2ee\	-men	.	2cc\	.	2ee\	.	2ee\	.	2ccc\	.
.	.	.	.	.	4ccc\	.	4ccc\	.	.	.	.	.	.	.	.	.	.	.	.	.	.	.	.	.	.	.	.	.
.	2G\	.	2g\	.	4dd\	.	4dd\	.	2G\	A-	.	2B\	A-	.	2g\	a-	.	2dd\	a-	.	2g/	.	2dd\	.	2dd\	.	2bb\	.
.	.	.	.	.	4bb\	.	4bb\	.	.	.	.	.	.	.	.	.	.	.	.	.	.	.	.	.	.	.	.	.
=171	=171	=171	=171	=171	=171	=171	=171	=171	=171	=171	=171	=171	=171	=171	=171	=171	=171	=171	=171	=171	=171	=171	=171	=171	=171	=171	=171	=171
1ryy	2C/	.	2g\	.	4ee\	.	4ee\	.	2C/	-men	.	2c\	-men	.	2g\	-men	.	2ee\	-men	.	2cc\	.	2ee\	.	2ee\	.	2ccc\	.
.	.	.	.	.	4ccc\	.	4ccc\	.	.	.	.	.	.	.	.	.	.	.	.	.	.	.	.	.	.	.	.	.
.	2G\	.	2g\	.	4dd\	.	4dd\	.	2G\	A-	.	2B\	A-	.	2g\	a-	.	2dd\	a-	.	2g/	.	2dd\	.	2dd\	.	2bb\	.
.	.	.	.	.	4bb\	.	4bb\	.	.	.	.	.	.	.	.	.	.	.	.	.	.	.	.	.	.	.	.	.
=172	=172	=172	=172	=172	=172	=172	=172	=172	=172	=172	=172	=172	=172	=172	=172	=172	=172	=172	=172	=172	=172	=172	=172	=172	=172	=172	=172	=172
1ryy	2C/	.	2g\	.	2ccc 2ee\	.	2ccc 2ee\	.	2C/	-men	.	2c\	-men	.	2g\	-men	.	2ee\	-men	.	2cc\	.	2ee\	.	2ee\	.	2ccc\	.
!	!	!	!LO:TX:b:i:t=Credo Sequitur.	!	!	!	!	!	!	!	!	!	!	!	!	!	!	!	!	!	!	!	!	!	!	!	!	!
.	2r	.	2r	.	2r	.	2r	.	2r	.	.	2r	.	.	2r	.	.	2r	.	.	2r	.	2r	.	2r	.	2r	.
==	==	==	==	==	==	==	==	==	==	==	==	==	==	==	==	==	==	==	==	==	==	==	==	==	==	==	==	==
*-	*-	*-	*-	*-	*-	*-	*-	*-	*-	*-	*-	*-	*-	*-	*-	*-	*-	*-	*-	*-	*-	*-	*-	*-	*-	*-	*-	*-
!!!system-decoration: [(g1)][(g2)][(g3)][(g4)]s13
!!!ENC: Mateusz Solarz
!!!END: 2020-09-18
!!!ENC: Marta Lawrence
!!!END: 2022-02-01
!!!YEC: Copyright 2022 Narodowy Instytut Fryderyka Chopina (https://polishscores.org)
!!!YEM: License CC-BY-4.0 (https://creativecommons.org/licenses/by/4.0)
